(** This GCode was generated by ReplicatorG 0037 **)
(*  using Skeinforge (35) - Legacy  *)
(*  for a Single headed Thing-O-Matic  *)
(*  on 2012/11/22 14:27:19 (+0100) *)
(**** beginning of start.gcode ****)
(This file is for a MakerBot Thing-O-Matic)
(**** begin initialization commands ****)
G21 (set units to mm)
G90 (set positioning to absolute)
M108 R5.0 (set extruder speed)
M103 (Make sure extruder is off)
M104 S225 T0 (set extruder temperature) (temp updated by printOMatic)
M109 S125 T0 (set heated-build-platform temperature)
(**** end initialization commands ****)
(**** begin homing ****)
G162 Z F1000 (home Z axis maximum)
G92 Z10 (set Z to 0)
G1 Z0 (move z down 10)
G162 Z F150 (home Z axis maximum)
G161 X Y F2500 (home XY axes minimum)
M132 X Y Z A B (Recall stored home offsets for XYZAB axis)
(**** end homing ****)
(**** begin pre-wipe commands ****)
( Some people have had problems with the nozzle hitting )
( bolts or wipers during this pre-extrusion warmup.     )
( If this happens to you, you can change the values for )
( the X and Y positions in the following code.          )
( The goal is to have the toolhead wipe its initial     )
( extrusion near the edge of the platform, [anchor it]  )
( so as not to have it interfere with the print.        )
( This file can be found in:                            )
( replicatorg/skein_engines/skeinforge-##/skeinforge_application/ )
( prefs/<profile name [e.g. Thingomatic-ABP-Mk7]>/alterations )
G1 X25 Y-60 Z10 F3300.0 (move to waiting position)
M6 T0 (wait for toolhead parts, nozzle, HBP, etc., to reach temperature)
G0 X25 Y-57 (Position Nozzle)
G0 Z0.6     (Position Height)
M108 R4.0   (Set Extruder Speed)
M101        (Start Extruder)
G4 P1500    (Create Anchor)
(**** end pre-wipe commands ****)
(**** end of start.gcode ****)
(<creation> skeinforge </creation>)
(<version> 10.11.05 </version>)
(<extruderInitialization>)
(<craftTypeName> extrusion </craftTypeName>)
M105
(<bridgeWidthMultiplier> 1.0 </bridgeWidthMultiplier>)
(<decimalPlacesCarried> 3 </decimalPlacesCarried>)
(<layerThickness> 0.3 </layerThickness>)
(<threadSequenceString> loops perimeter infill </threadSequenceString>)
(<operatingFeedRatePerSecond> 30.0 </operatingFeedRatePerSecond>)
(<operatingFlowRate> 1.17935176361 </operatingFlowRate>)
(<orbitalFeedRatePerSecond> 15.0 </orbitalFeedRatePerSecond>)
(<travelFeedRatePerSecond> 40.0 </travelFeedRatePerSecond>)
(<perimeterWidth> 0.419 </perimeterWidth>)
(<profileName> ABS </profileName>)
(<procedureDone> carve,bottom </procedureDone>)
(<procedureDone> preface </procedureDone>)
(<procedureDone> inset </procedureDone>)
(<procedureDone> fill </procedureDone>)
(<procedureDone> speed </procedureDone>)
(<procedureDone> raft </procedureDone>)
(<procedureDone> comb </procedureDone>)
(<procedureDone> cool </procedureDone>)
(<procedureDone> outline </procedureDone>)
(<procedureDone> reversal </procedureDone>)
(<procedureDone> export </procedureDone>)
(</extruderInitialization>)
(<extrusion>)
;M113 S1.0
M108 R1.179
(<layer> 0.78 )
G1 X26.46 Y-24.7 Z0.78 F270.0
M101
G1 X-28.14 Y-24.7 Z0.78 F270.0
G1 X-28.14 Y26.25 Z0.78 F270.0
G1 X26.46 Y26.25 Z0.78 F270.0
G1 X26.46 Y-24.36 Z0.78 F270.0
M108 R35.0
M102
G1 X26.46 Y-24.7 Z0.78 F270.0
M108 R1.179
M103
G1 X-24.81 Y-7.89 Z0.78 F270.0
M108 R35.0
M101
G1 X-25.14 Y-7.78 Z0.78 F270.0
M108 R1.179
G1 X-25.14 Y8.55 Z0.78 F270.0
G1 X-23.46 Y10.1 Z0.78 F270.0
G1 X-23.46 Y-10.53 Z0.78 F270.0
M108 R35.0
M102
G1 X-23.46 Y-10.87 Z0.78 F270.0
M108 R1.179
M103
G1 X-21.81 Y12.07 Z0.78 F270.0
M108 R35.0
M101
G1 X-21.79 Y12.42 Z0.78 F270.0
M108 R1.179
G1 X-21.79 Y-13.19 Z0.78 F270.0
G1 X-20.11 Y-15.51 Z0.78 F270.0
G1 X-20.11 Y14.74 Z0.78 F270.0
G1 X-18.44 Y17.06 Z0.78 F270.0
G1 X-18.44 Y-17.83 Z0.78 F270.0
G1 X-16.76 Y-18.61 Z0.78 F270.0
G1 X-16.76 Y18.61 Z0.78 F270.0
G1 X-15.08 Y19.38 Z0.78 F270.0
G1 X-15.08 Y-18.61 Z0.78 F270.0
G1 X-13.41 Y-19.38 Z0.78 F270.0
G1 X-13.41 Y20.15 Z0.78 F270.0
G1 X-11.73 Y20.93 Z0.78 F270.0
G1 X-11.73 Y-20.15 Z0.78 F270.0
G1 X-10.06 Y-20.93 Z0.78 F270.0
G1 X-10.06 Y21.7 Z0.78 F270.0
G1 X-8.38 Y21.7 Z0.78 F270.0
G1 X-8.38 Y-20.93 Z0.78 F270.0
G1 X-6.7 Y-20.93 Z0.78 F270.0
G1 X-6.7 Y-7.69 Z0.78 F270.0
G1 X-5.03 Y-8.47 Z0.78 F270.0
G1 X-5.03 Y-20.93 Z0.78 F270.0
G1 X-3.35 Y-21.7 Z0.78 F270.0
G1 X-3.35 Y-9.24 Z0.78 F270.0
G1 X-1.68 Y-9.24 Z0.78 F270.0
G1 X-1.68 Y-21.7 Z0.78 F270.0
G1 X0.0 Y-21.7 Z0.78 F270.0
G1 X0.0 Y-9.24 Z0.78 F270.0
G1 X1.68 Y-9.24 Z0.78 F270.0
G1 X1.68 Y-21.7 Z0.78 F270.0
G1 X3.35 Y-21.7 Z0.78 F270.0
G1 X3.35 Y-9.24 Z0.78 F270.0
G1 X5.03 Y-8.47 Z0.78 F270.0
G1 X5.03 Y-21.7 Z0.78 F270.0
G1 X6.7 Y-20.93 Z0.78 F270.0
G1 X6.7 Y22.48 Z0.78 F270.0
G1 X5.03 Y22.48 Z0.78 F270.0
G1 X5.03 Y9.24 Z0.78 F270.0
G1 X3.35 Y10.01 Z0.78 F270.0
G1 X3.35 Y22.48 Z0.78 F270.0
G1 X1.68 Y23.25 Z0.78 F270.0
G1 X1.68 Y10.79 Z0.78 F270.0
G1 X0.0 Y10.01 Z0.78 F270.0
G1 X0.0 Y23.25 Z0.78 F270.0
G1 X-1.68 Y22.48 Z0.78 F270.0
G1 X-1.68 Y10.01 Z0.78 F270.0
G1 X-3.35 Y10.01 Z0.78 F270.0
G1 X-3.35 Y22.48 Z0.78 F270.0
G1 X-5.03 Y22.48 Z0.78 F270.0
G1 X-5.03 Y9.24 Z0.78 F270.0
G1 X-6.7 Y8.47 Z0.78 F270.0
G1 X-6.7 Y21.36 Z0.78 F270.0
M108 R35.0
M102
G1 X-6.7 Y21.7 Z0.78 F270.0
M108 R1.179
M103
G1 X8.03 Y21.7 Z0.78 F270.0
M108 R35.0
M101
G1 X8.38 Y21.7 Z0.78 F270.0
M108 R1.179
G1 X8.38 Y-20.93 Z0.78 F270.0
G1 X10.06 Y-20.93 Z0.78 F270.0
G1 X10.06 Y21.7 Z0.78 F270.0
G1 X11.73 Y21.7 Z0.78 F270.0
G1 X11.73 Y-20.15 Z0.78 F270.0
G1 X13.41 Y-20.15 Z0.78 F270.0
G1 X13.41 Y20.93 Z0.78 F270.0
G1 X15.08 Y19.38 Z0.78 F270.0
G1 X15.08 Y-18.61 Z0.78 F270.0
G1 X16.76 Y-17.06 Z0.78 F270.0
G1 X16.76 Y17.83 Z0.78 F270.0
G1 X18.44 Y16.29 Z0.78 F270.0
G1 X18.44 Y-14.74 Z0.78 F270.0
G1 X20.11 Y-13.19 Z0.78 F270.0
G1 X20.11 Y14.74 Z0.78 F270.0
G1 X21.79 Y13.19 Z0.78 F270.0
G1 X21.79 Y-11.64 Z0.78 F270.0
G1 X23.46 Y-10.1 Z0.78 F270.0
G1 X23.46 Y11.31 Z0.78 F270.0
M108 R35.0
M102
G1 X23.46 Y11.64 Z0.78 F270.0
M108 R1.179
M103
(</layer>)
(<layer> 0.852 )
G1 X-21.28 Y0.55 Z0.85 F1750.0
M108 R35.0
M101
G1 X-23.49 Y0.0 Z0.85 F1750.0
M108 R1.179
G1 X-8.36 Y0.0 Z0.85 F1750.0
G1 X-8.36 Y0.77 Z0.85 F1750.0
G1 X-23.49 Y0.77 Z0.85 F1750.0
G1 X-23.49 Y1.55 Z0.85 F1750.0
G1 X-8.36 Y1.55 Z0.85 F1750.0
G1 X-8.36 Y2.32 Z0.85 F1750.0
G1 X-23.49 Y2.32 Z0.85 F1750.0
G1 X-23.49 Y3.09 Z0.85 F1750.0
G1 X-8.36 Y3.09 Z0.85 F1750.0
G1 X-8.36 Y3.87 Z0.85 F1750.0
G1 X-23.49 Y3.87 Z0.85 F1750.0
G1 X-23.49 Y4.64 Z0.85 F1750.0
G1 X-10.03 Y4.64 Z0.85 F1750.0
G1 X-10.03 Y5.42 Z0.85 F1750.0
G1 X-25.16 Y5.42 Z0.85 F1750.0
G1 X-25.16 Y6.19 Z0.85 F1750.0
G1 X-8.36 Y6.19 Z0.85 F1750.0
G1 X-8.36 Y6.96 Z0.85 F1750.0
G1 X-25.16 Y6.96 Z0.85 F1750.0
G1 X-25.16 Y7.74 Z0.85 F1750.0
G1 X-8.36 Y7.74 Z0.85 F1750.0
G1 X-6.68 Y8.51 Z0.85 F1750.0
M103
G1 X-7.54 Y8.51 Z0.85 F1750.0
M101
G1 X-25.16 Y8.51 Z0.85 F1750.0
G1 X-23.49 Y10.06 Z0.85 F1750.0
G1 X23.49 Y10.06 Z0.85 F1750.0
G1 X23.49 Y9.28 Z0.85 F1750.0
G1 X5.0 Y9.28 Z0.85 F1750.0
G1 X6.68 Y7.74 Z0.85 F1750.0
G1 X23.49 Y7.74 Z0.85 F1750.0
G1 X23.49 Y8.51 Z0.85 F1750.0
G1 X8.87 Y8.51 Z0.85 F1750.0
M108 R35.0
M102
G1 X6.68 Y8.51 Z0.85 F1750.0
M108 R1.179
M103
G1 X5.97 Y-6.24 Z0.85 F1750.0
M108 R35.0
M101
G1 X5.86 Y-8.51 Z0.85 F1750.0
M108 R1.179
G1 X23.49 Y-8.51 Z0.85 F1750.0
G1 X23.49 Y-9.28 Z0.85 F1750.0
G1 X-23.49 Y-9.28 Z0.85 F1750.0
G1 X-23.49 Y-10.06 Z0.85 F1750.0
G1 X23.49 Y-10.06 Z0.85 F1750.0
G1 X21.81 Y-11.6 Z0.85 F1750.0
G1 X-21.81 Y-11.6 Z0.85 F1750.0
G1 X-21.81 Y-12.38 Z0.85 F1750.0
G1 X20.14 Y-12.38 Z0.85 F1750.0
G1 X20.14 Y-13.15 Z0.85 F1750.0
G1 X-21.81 Y-13.15 Z0.85 F1750.0
G1 X-20.14 Y-14.7 Z0.85 F1750.0
G1 X18.46 Y-14.7 Z0.85 F1750.0
G1 X18.46 Y-13.92 Z0.85 F1750.0
G1 X-17.95 Y-13.92 Z0.85 F1750.0
M108 R35.0
M102
G1 X-20.14 Y-13.92 Z0.85 F1750.0
M108 R1.179
M103
M108 R35.0
M101
G1 X-20.14 Y-15.47 Z0.85 F1190.0
M108 R1.179
G1 X16.79 Y-15.47 Z0.85 F1750.0
G1 X16.79 Y-16.24 Z0.85 F1750.0
G1 X-18.46 Y-16.24 Z0.85 F1750.0
G1 X-18.46 Y-17.02 Z0.85 F1750.0
G1 X16.79 Y-17.02 Z0.85 F1750.0
G1 X15.11 Y-18.57 Z0.85 F1750.0
G1 X-16.79 Y-18.57 Z0.85 F1750.0
G1 X-18.46 Y-17.79 Z0.85 F1750.0
M103
G1 X-17.6 Y-17.79 Z0.85 F1750.0
M101
G1 X12.92 Y-17.79 Z0.85 F1750.0
M108 R35.0
M102
G1 X15.11 Y-17.79 Z0.85 F1750.0
M108 R1.179
M103
G1 X-11.16 Y-19.21 Z0.85 F1750.0
M108 R35.0
M101
G1 X-13.43 Y-19.34 Z0.85 F1750.0
M108 R1.179
G1 X13.43 Y-19.34 Z0.85 F1750.0
G1 X13.43 Y-20.11 Z0.85 F1750.0
G1 X-9.57 Y-20.11 Z0.85 F1750.0
M108 R35.0
M102
G1 X-11.76 Y-20.11 Z0.85 F1750.0
M108 R1.179
M103
G1 X7.81 Y-20.8 Z0.85 F1750.0
M108 R35.0
M101
G1 X10.08 Y-20.89 Z0.85 F1750.0
M108 R1.179
G1 X-7.89 Y-20.89 Z0.85 F1750.0
M108 R35.0
M102
G1 X-10.08 Y-20.89 Z0.85 F1750.0
M108 R1.179
M103
G1 X-5.64 Y-21.4 Z0.85 F1750.0
M108 R35.0
M101
G1 X-3.38 Y-21.66 Z0.85 F1750.0
M108 R1.179
G1 X2.87 Y-21.66 Z0.85 F1750.0
M108 R35.0
M102
G1 X5.05 Y-21.66 Z0.85 F1750.0
M108 R1.179
M103
G1 X-22.25 Y-8.71 Z0.85 F1750.0
M108 R35.0
M101
G1 X-24.31 Y-7.74 Z0.85 F1750.0
M108 R1.179
G1 X-6.68 Y-7.74 Z0.85 F1750.0
G1 X-8.36 Y-6.19 Z0.85 F1750.0
G1 X-25.16 Y-6.19 Z0.85 F1750.0
G1 X-25.16 Y-6.96 Z0.85 F1750.0
G1 X-10.54 Y-6.96 Z0.85 F1750.0
M108 R35.0
M102
G1 X-8.36 Y-6.96 Z0.85 F1750.0
M108 R1.179
M103
G1 X-8.8 Y-4.56 Z0.85 F1750.0
M108 R35.0
M101
G1 X-9.21 Y-2.32 Z0.85 F1750.0
M108 R1.179
G1 X-23.49 Y-2.32 Z0.85 F1750.0
G1 X-23.49 Y-1.55 Z0.85 F1750.0
G1 X-8.36 Y-1.55 Z0.85 F1750.0
G1 X-8.36 Y-0.77 Z0.85 F1750.0
G1 X-21.3 Y-0.77 Z0.85 F1750.0
M108 R35.0
M102
G1 X-23.49 Y-0.77 Z0.85 F1750.0
M108 R1.179
M103
G1 X-6.47 Y20.65 Z0.85 F1750.0
M108 R35.0
M101
G1 X-5.05 Y22.43 Z0.85 F1750.0
M108 R1.179
G1 X4.54 Y22.43 Z0.85 F1750.0
M108 R35.0
M102
G1 X6.73 Y22.43 Z0.85 F1750.0
M108 R1.179
M103
G1 X9.51 Y22.0 Z0.85 F1750.0
M108 R35.0
M101
G1 X11.76 Y21.66 Z0.85 F1750.0
M108 R1.179
G1 X-10.08 Y21.66 Z0.85 F1750.0
G1 X-11.76 Y20.89 Z0.85 F1750.0
M103
G1 X-10.9 Y20.89 Z0.85 F1750.0
M101
G1 X13.43 Y20.89 Z0.85 F1750.0
G1 X13.43 Y20.11 Z0.85 F1750.0
G1 X-13.43 Y20.11 Z0.85 F1750.0
G1 X-15.11 Y19.34 Z0.85 F1750.0
M103
G1 X-14.25 Y19.34 Z0.85 F1750.0
M101
G1 X15.11 Y19.34 Z0.85 F1750.0
G1 X15.11 Y18.57 Z0.85 F1750.0
G1 X-16.79 Y18.57 Z0.85 F1750.0
G1 X-16.79 Y17.79 Z0.85 F1750.0
G1 X16.79 Y17.79 Z0.85 F1750.0
G1 X16.79 Y17.02 Z0.85 F1750.0
G1 X-18.46 Y17.02 Z0.85 F1750.0
G1 X-18.46 Y16.24 Z0.85 F1750.0
G1 X18.46 Y16.24 Z0.85 F1750.0
G1 X18.46 Y15.47 Z0.85 F1750.0
G1 X-18.46 Y15.47 Z0.85 F1750.0
G1 X-20.14 Y14.7 Z0.85 F1750.0
M103
G1 X-19.28 Y14.7 Z0.85 F1750.0
M101
G1 X20.14 Y14.7 Z0.85 F1750.0
G1 X20.14 Y13.92 Z0.85 F1750.0
G1 X-20.14 Y13.92 Z0.85 F1750.0
G1 X-20.14 Y13.15 Z0.85 F1750.0
G1 X21.81 Y13.15 Z0.85 F1750.0
G1 X21.81 Y12.38 Z0.85 F1750.0
G1 X-21.81 Y12.38 Z0.85 F1750.0
G1 X-21.81 Y11.6 Z0.85 F1750.0
G1 X23.49 Y11.6 Z0.85 F1750.0
G1 X23.49 Y10.83 Z0.85 F1750.0
G1 X-19.63 Y10.83 Z0.85 F1750.0
M108 R35.0
M102
G1 X-21.81 Y10.83 Z0.85 F1750.0
M108 R1.179
M103
G1 X-21.82 Y10.83 Z0.85 F1750.0
M108 R35.0
M101
G1 X-23.49 Y9.28 Z0.85 F1750.0
M108 R1.179
G1 X-5.0 Y9.28 Z0.85 F1750.0
G1 X-8.36 Y-2.32 Z0.85 F1750.0
G1 X-10.03 Y-3.09 Z0.85 F1750.0
G1 X-25.16 Y-3.09 Z0.85 F1750.0
G1 X-25.16 Y-3.87 Z0.85 F1750.0
G1 X-10.03 Y-3.87 Z0.85 F1750.0
G1 X-10.03 Y-4.64 Z0.85 F1750.0
G1 X-25.16 Y-4.64 Z0.85 F1750.0
G1 X-25.16 Y-5.42 Z0.85 F1750.0
G1 X-10.03 Y-5.42 Z0.85 F1750.0
G1 X8.36 Y6.96 Z0.85 F1750.0
G1 X23.49 Y6.96 Z0.85 F1750.0
G1 X23.49 Y6.19 Z0.85 F1750.0
G1 X8.36 Y6.19 Z0.85 F1750.0
G1 X8.36 Y5.42 Z0.85 F1750.0
G1 X23.49 Y5.42 Z0.85 F1750.0
G1 X23.49 Y4.64 Z0.85 F1750.0
G1 X8.36 Y4.64 Z0.85 F1750.0
G1 X8.36 Y3.87 Z0.85 F1750.0
G1 X23.49 Y3.87 Z0.85 F1750.0
G1 X23.49 Y3.09 Z0.85 F1750.0
G1 X8.36 Y3.09 Z0.85 F1750.0
G1 X8.36 Y2.32 Z0.85 F1750.0
G1 X23.49 Y2.32 Z0.85 F1750.0
G1 X23.49 Y1.55 Z0.85 F1750.0
G1 X8.36 Y1.55 Z0.85 F1750.0
G1 X8.36 Y0.77 Z0.85 F1750.0
G1 X23.49 Y0.77 Z0.85 F1750.0
G1 X23.49 Y0.0 Z0.85 F1750.0
G1 X8.36 Y0.0 Z0.85 F1750.0
G1 X8.36 Y-0.77 Z0.85 F1750.0
G1 X23.49 Y-0.77 Z0.85 F1750.0
G1 X23.49 Y-1.55 Z0.85 F1750.0
G1 X8.36 Y-1.55 Z0.85 F1750.0
G1 X8.36 Y-2.32 Z0.85 F1750.0
G1 X23.49 Y-2.32 Z0.85 F1750.0
G1 X23.49 Y-3.09 Z0.85 F1750.0
G1 X8.36 Y-3.09 Z0.85 F1750.0
G1 X8.36 Y-3.87 Z0.85 F1750.0
G1 X23.49 Y-3.87 Z0.85 F1750.0
G1 X23.49 Y-4.64 Z0.85 F1750.0
G1 X8.36 Y-4.64 Z0.85 F1750.0
G1 X8.36 Y-5.42 Z0.85 F1750.0
G1 X23.49 Y-5.42 Z0.85 F1750.0
G1 X23.49 Y-6.19 Z0.85 F1750.0
G1 X6.68 Y-6.19 Z0.85 F1750.0
G1 X6.68 Y-6.96 Z0.85 F1750.0
G1 X23.49 Y-6.96 Z0.85 F1750.0
G1 X23.49 Y-7.74 Z0.85 F1750.0
G1 X6.68 Y-7.74 Z0.85 F1750.0
G1 X5.0 Y-8.51 Z0.85 F1750.0
G1 X-23.49 Y-8.51 Z0.85 F1750.0
G1 X-25.16 Y-7.74 Z0.85 F1750.0
G1 X-23.49 Y-10.83 Z0.85 F1750.0
G1 X19.63 Y-10.83 Z0.85 F1750.0
M108 R35.0
M102
G1 X21.81 Y-10.83 Z0.85 F1750.0
M108 R1.179
M103
G1 X2.86 Y21.25 Z0.85 F1750.0
M108 R35.0
M101
G1 X1.7 Y23.21 Z0.85 F1750.0
M108 R1.179
M108 R35.0
M102
G1 X-0.03 Y23.21 Z0.85 F1380.8
M108 R1.179
M103
(</layer>)
(<raftLayerEnd> </raftLayerEnd>)
(<layer> 1.71 )
(<surroundingLoop>)
(<boundaryPerimeter>)
(<boundaryPoint> X17.736 Y9.209 Z1.71 </boundaryPoint>)
(<boundaryPoint> X8.906 Y17.497 Z1.71 </boundaryPoint>)
(<boundaryPoint> X0.921 Y18.631 Z1.71 </boundaryPoint>)
(<boundaryPoint> X-7.172 Y17.282 Z1.71 </boundaryPoint>)
(<boundaryPoint> X-13.079 Y14.564 Z1.71 </boundaryPoint>)
(<boundaryPoint> X-13.125 Y14.448 Z1.71 </boundaryPoint>)
(<boundaryPoint> X-19.163 Y6.651 Z1.71 </boundaryPoint>)
(<boundaryPoint> X-19.178 Y6.505 Z1.71 </boundaryPoint>)
(<boundaryPoint> X-17.116 Y0.663 Z1.71 </boundaryPoint>)
(<boundaryPoint> X-19.665 Y-5.864 Z1.71 </boundaryPoint>)
(<boundaryPoint> X-19.649 Y-5.997 Z1.71 </boundaryPoint>)
(<boundaryPoint> X-14.155 Y-14.101 Z1.71 </boundaryPoint>)
(<boundaryPoint> X-7.692 Y-16.466 Z1.71 </boundaryPoint>)
(<boundaryPoint> X0.987 Y-17.531 Z1.71 </boundaryPoint>)
(<boundaryPoint> X9.555 Y-16.329 Z1.71 </boundaryPoint>)
(<boundaryPoint> X17.755 Y-7.794 Z1.71 </boundaryPoint>)
(<boundaryPoint> X17.783 Y-7.661 Z1.71 </boundaryPoint>)
(<loop> inner )
G1 X-12.95 Y2.6 Z1.64 F1800.0
M108 R35.0
M101
G1 X-14.19 Y0.62 Z1.71 F1800.0
M108 R1.179
G1 X-16.23 Y5.88 Z1.71 F1350.0
G1 X-16.17 Y6.36 Z1.71 F1350.0
G1 X-11.4 Y12.25 Z1.71 F1350.0
G1 X-11.29 Y12.5 Z1.71 F1350.0
G1 X-6.43 Y14.56 Z1.71 F1350.0
G1 X-6.24 Y14.56 Z1.71 F1350.0
G1 X1.0 Y15.69 Z1.71 F1350.0
G1 X7.63 Y14.93 Z1.71 F1350.0
G1 X7.86 Y14.78 Z1.71 F1350.0
G1 X14.81 Y8.33 Z1.71 F1350.0
G1 X15.0 Y8.08 Z1.71 F1350.0
G1 X15.05 Y7.72 Z1.71 F1350.0
G1 X15.06 Y-6.34 Z1.71 F1350.0
G1 X14.99 Y-6.69 Z1.71 F1350.0
G1 X8.41 Y-13.43 Z1.71 F1350.0
G1 X8.15 Y-13.62 Z1.71 F1350.0
G1 X1.11 Y-14.52 Z1.71 F1350.0
G1 X0.94 Y-14.59 Z1.71 F1350.0
G1 X-6.97 Y-13.63 Z1.71 F1350.0
G1 X-12.29 Y-11.83 Z1.71 F1350.0
G1 X-12.43 Y-11.54 Z1.71 F1350.0
G1 X-16.59 Y-5.73 Z1.71 F1350.0
G1 X-16.65 Y-5.29 Z1.71 F1350.0
G1 X-14.84 Y-0.93 Z1.71 F1350.0
M108 R35.0
M102
G1 X-14.19 Y0.62 Z1.71 F1350.0
M108 R1.179
M103
(</loop>)
(<loop> outer )
M108 R35.0
M101
G1 X-16.45 Y0.65 Z1.71 F1735.518
M108 R1.179
G1 X-18.99 Y-5.85 Z1.71 F1350.0
G1 X-13.75 Y-13.58 Z1.71 F1350.0
G1 X-7.54 Y-15.85 Z1.71 F1350.0
G1 X0.98 Y-16.9 Z1.71 F1350.0
G1 X9.25 Y-15.74 Z1.71 F1350.0
G1 X17.15 Y-7.51 Z1.71 F1350.0
G1 X17.11 Y8.94 Z1.71 F1350.0
G1 X8.62 Y16.9 Z1.71 F1350.0
G1 X0.93 Y18.0 Z1.71 F1350.0
G1 X-6.99 Y16.68 Z1.71 F1350.0
G1 X-12.59 Y14.1 Z1.71 F1350.0
G1 X-12.57 Y14.13 Z1.71 F1350.0
G1 X-18.5 Y6.48 Z1.71 F1350.0
G1 X-16.45 Y0.65 Z1.71 F1350.0
M103
(</loop>)
(<perimeter> outer )
G1 X-16.89 Y0.66 Z1.71 F1440.0
M101
G1 X-19.45 Y-5.89 Z1.71 F1080.0
G1 X-19.45 Y-5.92 Z1.71 F1080.0
G1 X-14.02 Y-13.93 Z1.71 F1080.0
G1 X-7.64 Y-16.26 Z1.71 F1080.0
G1 X0.98 Y-17.32 Z1.71 F1080.0
G1 X9.45 Y-16.13 Z1.71 F1080.0
G1 X17.56 Y-7.69 Z1.71 F1080.0
G1 X17.57 Y-7.64 Z1.71 F1080.0
G1 X17.53 Y9.12 Z1.71 F1080.0
G1 X8.81 Y17.3 Z1.71 F1080.0
G1 X0.92 Y18.42 Z1.71 F1080.0
G1 X-7.11 Y17.08 Z1.71 F1080.0
G1 X-12.91 Y14.41 Z1.71 F1080.0
G1 X-12.94 Y14.34 Z1.71 F1080.0
G1 X-18.96 Y6.57 Z1.71 F1080.0
G1 X-18.96 Y6.53 Z1.71 F1080.0
G1 X-17.34 Y1.93 Z1.71 F1080.0
M108 R35.0
M102
G1 X-16.89 Y0.66 Z1.71 F1080.0
M108 R1.179
M103
(</perimeter>)
(</boundaryPerimeter>)
(<surroundingLoop>)
(<boundaryPerimeter>)
(<boundaryPoint> X7.414 Y14.317 Z1.71 </boundaryPoint>)
(<boundaryPoint> X7.475 Y14.279 Z1.71 </boundaryPoint>)
(<boundaryPoint> X14.338 Y7.913 Z1.71 </boundaryPoint>)
(<boundaryPoint> X14.401 Y7.828 Z1.71 </boundaryPoint>)
(<boundaryPoint> X14.424 Y7.675 Z1.71 </boundaryPoint>)
(<boundaryPoint> X14.435 Y-6.275 Z1.71 </boundaryPoint>)
(<boundaryPoint> X14.412 Y-6.387 Z1.71 </boundaryPoint>)
(<boundaryPoint> X8.001 Y-12.951 Z1.71 </boundaryPoint>)
(<boundaryPoint> X7.908 Y-13.019 Z1.71 </boundaryPoint>)
(<boundaryPoint> X0.944 Y-13.906 Z1.71 </boundaryPoint>)
(<boundaryPoint> X0.849 Y-13.945 Z1.71 </boundaryPoint>)
(<boundaryPoint> X-6.826 Y-13.014 Z1.71 </boundaryPoint>)
(<boundaryPoint> X-11.844 Y-11.318 Z1.71 </boundaryPoint>)
(<boundaryPoint> X-11.893 Y-11.218 Z1.71 </boundaryPoint>)
(<boundaryPoint> X-15.983 Y-5.495 Z1.71 </boundaryPoint>)
(<boundaryPoint> X-16.0 Y-5.369 Z1.71 </boundaryPoint>)
(<boundaryPoint> X-13.513 Y0.616 Z1.71 </boundaryPoint>)
(<boundaryPoint> X-15.588 Y5.965 Z1.71 </boundaryPoint>)
(<boundaryPoint> X-15.571 Y6.104 Z1.71 </boundaryPoint>)
(<boundaryPoint> X-10.862 Y11.918 Z1.71 </boundaryPoint>)
(<boundaryPoint> X-10.816 Y12.018 Z1.71 </boundaryPoint>)
(<boundaryPoint> X-6.317 Y13.931 Z1.71 </boundaryPoint>)
(<boundaryPoint> X-6.203 Y13.927 Z1.71 </boundaryPoint>)
(<boundaryPoint> X1.01 Y15.052 Z1.71 </boundaryPoint>)
(<perimeter> inner )
G1 X-15.91 Y1.04 Z1.71 F1440.0
M108 R35.0
M101
G1 X-14.16 Y1.72 Z1.71 F1440.0
M108 R1.179
G1 X-15.8 Y5.94 Z1.71 F1080.0
G1 X-15.77 Y6.19 Z1.71 F1080.0
G1 X-11.04 Y12.03 Z1.71 F1080.0
G1 X-10.97 Y12.18 Z1.71 F1080.0
G1 X-6.36 Y14.14 Z1.71 F1080.0
G1 X-6.22 Y14.14 Z1.71 F1080.0
G1 X1.01 Y15.26 Z1.71 F1080.0
G1 X7.49 Y14.52 Z1.71 F1080.0
G1 X7.6 Y14.45 Z1.71 F1080.0
G1 X14.49 Y8.05 Z1.71 F1080.0
G1 X14.6 Y7.91 Z1.71 F1080.0
G1 X14.63 Y7.69 Z1.71 F1080.0
G1 X14.64 Y-6.3 Z1.71 F1080.0
G1 X14.61 Y-6.49 Z1.71 F1080.0
G1 X8.14 Y-13.11 Z1.71 F1080.0
G1 X7.99 Y-13.22 Z1.71 F1080.0
G1 X1.0 Y-14.11 Z1.71 F1080.0
G1 X0.88 Y-14.16 Z1.71 F1080.0
G1 X-6.87 Y-13.22 Z1.71 F1080.0
G1 X-11.99 Y-11.49 Z1.71 F1080.0
G1 X-12.07 Y-11.33 Z1.71 F1080.0
G1 X-16.18 Y-5.58 Z1.71 F1080.0
G1 X-16.21 Y-5.34 Z1.71 F1080.0
G1 X-13.8 Y0.46 Z1.71 F1080.0
M108 R35.0
M102
G1 X-13.74 Y0.62 Z1.71 F1080.0
G1 X-14.16 Y1.72 Z1.71 F1080.0
M108 R1.179
M103
(</perimeter>)
(</boundaryPerimeter>)
(</surroundingLoop>)
G1 X-14.66 Y0.2 Z1.71 F1800.0
M101
G1 X-14.66 Y1.08 Z1.71 F1350.0
M103
M108 R35.0
M101
G1 X-15.08 Y2.16 Z1.71 F891.1
M108 R1.179
G1 X-15.08 Y0.88 Z1.71 F1350.0
M108 R35.0
M102
G1 X-15.08 Y-0.81 Z1.71 F1350.0
M108 R1.179
M103
M108 R35.0
M101
G1 X-15.5 Y-1.81 Z1.71 F839.704
M108 R1.179
G1 X-15.5 Y1.56 Z1.71 F1350.0
M108 R35.0
M102
G1 X-15.5 Y3.24 Z1.71 F1350.0
M108 R1.179
M103
M108 R35.0
M101
G1 X-15.92 Y4.32 Z1.71 F890.822
M108 R1.179
G1 X-15.92 Y-1.14 Z1.71 F1350.0
M108 R35.0
M102
G1 X-15.92 Y-2.82 Z1.71 F1350.0
M108 R1.179
M103
M108 R35.0
M101
G1 X-16.34 Y-3.83 Z1.71 F839.704
M108 R1.179
G1 X-16.34 Y0.18 Z1.71 F1350.0
M103
G1 X-16.34 Y1.16 Z1.71 F1800.0
M101
G1 X-16.34 Y3.71 Z1.71 F1350.0
M108 R35.0
M102
G1 X-16.34 Y5.4 Z1.71 F1350.0
M108 R1.179
M103
M108 R35.0
M101
G1 X-16.34 Y6.59 Z1.71 F913.077
M108 R1.179
G1 X-16.34 Y8.82 Z1.71 F1350.0
G1 X-15.92 Y9.36 Z1.71 F1350.0
G1 X-15.92 Y7.11 Z1.71 F1350.0
G1 X-15.5 Y7.63 Z1.71 F1350.0
G1 X-15.5 Y9.9 Z1.71 F1350.0
G1 X-15.08 Y10.44 Z1.71 F1350.0
G1 X-15.08 Y8.14 Z1.71 F1350.0
G1 X-14.66 Y8.66 Z1.71 F1350.0
G1 X-14.66 Y10.98 Z1.71 F1350.0
G1 X-14.24 Y11.52 Z1.71 F1350.0
G1 X-14.24 Y9.18 Z1.71 F1350.0
G1 X-13.82 Y9.69 Z1.71 F1350.0
G1 X-13.82 Y12.06 Z1.71 F1350.0
G1 X-13.4 Y12.6 Z1.71 F1350.0
G1 X-13.4 Y10.21 Z1.71 F1350.0
G1 X-12.98 Y10.73 Z1.71 F1350.0
G1 X-12.98 Y13.14 Z1.71 F1350.0
G1 X-12.57 Y13.68 Z1.71 F1350.0
G1 X-12.57 Y11.24 Z1.71 F1350.0
G1 X-12.15 Y11.76 Z1.71 F1350.0
G1 X-12.15 Y14.02 Z1.71 F1350.0
G1 X-11.73 Y14.21 Z1.71 F1350.0
G1 X-11.73 Y12.28 Z1.71 F1350.0
M103
G1 X-11.31 Y12.79 Z1.71 F1800.0
M101
G1 X-11.31 Y14.4 Z1.71 F1350.0
M103
G1 X-10.89 Y14.6 Z1.71 F1800.0
M101
G1 X-10.89 Y12.96 Z1.71 F1350.0
G1 X-10.47 Y13.14 Z1.71 F1350.0
G1 X-10.47 Y14.79 Z1.71 F1350.0
M103
G1 X-10.05 Y14.98 Z1.71 F1800.0
M101
G1 X-10.05 Y13.32 Z1.71 F1350.0
G1 X-9.63 Y13.5 Z1.71 F1350.0
G1 X-9.63 Y15.17 Z1.71 F1350.0
M103
G1 X-9.21 Y15.36 Z1.71 F1800.0
M101
G1 X-9.21 Y13.68 Z1.71 F1350.0
M103
G1 X-8.8 Y13.86 Z1.71 F1800.0
M101
G1 X-8.8 Y15.55 Z1.71 F1350.0
G1 X-8.38 Y15.74 Z1.71 F1350.0
G1 X-8.38 Y14.03 Z1.71 F1350.0
M103
G1 X-7.96 Y14.21 Z1.71 F1800.0
M101
G1 X-7.96 Y15.93 Z1.71 F1350.0
M103
G1 X-7.54 Y16.12 Z1.71 F1800.0
M101
G1 X-7.54 Y14.39 Z1.71 F1350.0
M103
G1 X-7.12 Y14.57 Z1.71 F1800.0
M101
G1 X-7.12 Y16.32 Z1.71 F1350.0
G1 X-6.7 Y16.45 Z1.71 F1350.0
G1 X-6.7 Y14.75 Z1.71 F1350.0
M103
G1 X-6.28 Y14.83 Z1.71 F1800.0
M101
M108 R35.0
M102
G1 X-6.28 Y16.52 Z1.71 F1348.8
M108 R1.179
M103
M108 R35.0
M101
G1 X-5.03 Y16.73 Z1.71 F979.439
M108 R1.179
G1 X-5.03 Y15.02 Z1.71 F1350.0
M103
G1 X-4.61 Y15.09 Z1.71 F1800.0
M101
G1 X-4.61 Y16.8 Z1.71 F1350.0
G1 X-4.19 Y16.87 Z1.71 F1350.0
G1 X-4.19 Y15.15 Z1.71 F1350.0
M103
G1 X-3.77 Y15.22 Z1.71 F1800.0
M101
G1 X-3.77 Y16.94 Z1.71 F1350.0
M103
G1 X-3.35 Y17.01 Z1.71 F1800.0
M101
G1 X-3.35 Y15.28 Z1.71 F1350.0
G1 X-2.93 Y15.35 Z1.71 F1350.0
G1 X-2.93 Y17.08 Z1.71 F1350.0
M103
G1 X-2.51 Y17.14 Z1.71 F1800.0
M101
G1 X-2.51 Y15.41 Z1.71 F1350.0
M103
G1 X-2.09 Y15.48 Z1.71 F1800.0
M101
G1 X-2.09 Y17.21 Z1.71 F1350.0
G1 X-1.68 Y17.29 Z1.71 F1350.0
G1 X-1.68 Y17.23 Z1.71 F1350.0
M108 R35.0
M102
G1 X-1.68 Y15.54 Z1.71 F1350.0
M108 R1.179
M103
M108 R35.0
M101
G1 X-1.26 Y17.36 Z1.71 F1429.127
M108 R1.179
G1 X-1.26 Y15.61 Z1.71 F1350.0
G1 X-0.84 Y15.68 Z1.71 F1350.0
G1 X-0.84 Y17.43 Z1.71 F1350.0
G1 X-0.42 Y17.5 Z1.71 F1350.0
G1 X-0.42 Y17.43 Z1.71 F1350.0
M108 R35.0
M102
G1 X-0.42 Y15.74 Z1.71 F1350.0
M108 R1.179
M103
M108 R35.0
M101
G1 X0.0 Y17.56 Z1.71 F1438.871
M108 R1.179
G1 X0.0 Y15.81 Z1.71 F1350.0
G1 X0.42 Y15.87 Z1.71 F1350.0
G1 X0.42 Y17.63 Z1.71 F1350.0
G1 X0.84 Y17.7 Z1.71 F1350.0
G1 X0.84 Y15.94 Z1.71 F1350.0
G1 X1.26 Y15.93 Z1.71 F1350.0
G1 X1.26 Y17.67 Z1.71 F1350.0
M103
G1 X1.68 Y17.61 Z1.71 F1800.0
M101
G1 X1.68 Y15.88 Z1.71 F1350.0
G1 X2.09 Y15.83 Z1.71 F1350.0
G1 X2.09 Y15.87 Z1.71 F1350.0
M108 R35.0
M102
G1 X2.09 Y17.55 Z1.71 F1350.0
M108 R1.179
M103
M108 R35.0
M101
G1 X2.51 Y15.79 Z1.71 F1398.419
M108 R1.179
G1 X2.51 Y17.5 Z1.71 F1350.0
G1 X2.93 Y17.44 Z1.71 F1350.0
G1 X2.93 Y15.74 Z1.71 F1350.0
M103
G1 X3.35 Y15.69 Z1.71 F1800.0
M101
G1 X3.35 Y17.38 Z1.71 F1350.0
G1 X3.77 Y17.32 Z1.71 F1350.0
G1 X3.77 Y15.64 Z1.71 F1350.0
G1 X4.19 Y15.59 Z1.71 F1350.0
G1 X4.19 Y17.26 Z1.71 F1350.0
M103
G1 X4.61 Y17.2 Z1.71 F1800.0
M101
G1 X4.61 Y15.55 Z1.71 F1350.0
G1 X4.98 Y15.5 Z1.71 F1350.0
M108 R35.0
M102
G1 X5.03 Y15.5 Z1.71 F1350.0
G1 X5.03 Y17.14 Z1.71 F1350.0
M108 R1.179
M103
M108 R35.0
M101
G1 X5.45 Y15.45 Z1.71 F1337.681
M108 R1.179
G1 X5.45 Y17.08 Z1.71 F1350.0
G1 X5.86 Y17.02 Z1.71 F1350.0
G1 X5.86 Y15.4 Z1.71 F1350.0
M103
G1 X6.28 Y15.35 Z1.71 F1800.0
M101
G1 X6.28 Y16.96 Z1.71 F1350.0
G1 X6.7 Y16.9 Z1.71 F1350.0
G1 X6.7 Y15.3 Z1.71 F1350.0
M103
G1 X7.12 Y15.26 Z1.71 F1800.0
M101
G1 X7.12 Y16.84 Z1.71 F1350.0
G1 X7.54 Y16.78 Z1.71 F1350.0
G1 X7.54 Y15.21 Z1.71 F1350.0
G1 X7.96 Y15.04 Z1.71 F1350.0
G1 X7.96 Y16.72 Z1.71 F1350.0
M103
G1 X8.38 Y16.66 Z1.71 F1800.0
M101
G1 X8.38 Y14.67 Z1.71 F1350.0
G1 X8.8 Y14.28 Z1.71 F1350.0
G1 X8.8 Y16.36 Z1.71 F1350.0
G1 X9.21 Y15.97 Z1.71 F1350.0
G1 X9.21 Y13.89 Z1.71 F1350.0
G1 X9.63 Y13.51 Z1.71 F1350.0
G1 X9.63 Y15.58 Z1.71 F1350.0
G1 X10.05 Y15.19 Z1.71 F1350.0
G1 X10.05 Y13.12 Z1.71 F1350.0
G1 X10.47 Y12.73 Z1.71 F1350.0
G1 X10.47 Y14.79 Z1.71 F1350.0
G1 X10.89 Y14.4 Z1.71 F1350.0
G1 X10.89 Y12.34 Z1.71 F1350.0
G1 X11.31 Y11.95 Z1.71 F1350.0
G1 X11.31 Y14.01 Z1.71 F1350.0
G1 X11.73 Y13.61 Z1.71 F1350.0
G1 X11.73 Y11.56 Z1.71 F1350.0
G1 X12.15 Y11.17 Z1.71 F1350.0
G1 X12.15 Y13.22 Z1.71 F1350.0
G1 X12.57 Y12.83 Z1.71 F1350.0
G1 X12.57 Y10.79 Z1.71 F1350.0
G1 X12.98 Y10.4 Z1.71 F1350.0
G1 X12.98 Y12.43 Z1.71 F1350.0
G1 X13.4 Y12.04 Z1.71 F1350.0
G1 X13.4 Y10.01 Z1.71 F1350.0
G1 X13.82 Y9.62 Z1.71 F1350.0
G1 X13.82 Y11.65 Z1.71 F1350.0
G1 X14.24 Y11.25 Z1.71 F1350.0
G1 X14.24 Y9.23 Z1.71 F1350.0
G1 X14.66 Y8.84 Z1.71 F1350.0
G1 X14.66 Y10.86 Z1.71 F1350.0
G1 X15.08 Y10.47 Z1.71 F1350.0
G1 X15.08 Y10.11 Z1.71 F1350.0
M108 R35.0
M102
G1 X15.08 Y8.43 Z1.71 F1350.0
M108 R1.179
M103
G1 X16.51 Y-5.21 Z1.71 F1800.0
M108 R35.0
M101
G1 X16.75 Y-7.54 Z1.71 F1800.0
M108 R1.179
G1 X16.75 Y8.89 Z1.71 F1350.0
G1 X16.34 Y9.29 Z1.71 F1350.0
G1 X16.34 Y-7.97 Z1.71 F1350.0
G1 X15.92 Y-8.41 Z1.71 F1350.0
G1 X15.92 Y9.68 Z1.71 F1350.0
G1 X15.5 Y10.07 Z1.71 F1350.0
G1 X15.5 Y-8.84 Z1.71 F1350.0
G1 X15.08 Y-9.28 Z1.71 F1350.0
G1 X15.08 Y-6.99 Z1.71 F1350.0
G1 X14.66 Y-7.42 Z1.71 F1350.0
G1 X14.66 Y-9.71 Z1.71 F1350.0
G1 X14.24 Y-10.15 Z1.71 F1350.0
G1 X14.24 Y-7.85 Z1.71 F1350.0
G1 X13.82 Y-8.28 Z1.71 F1350.0
G1 X13.82 Y-10.59 Z1.71 F1350.0
G1 X13.4 Y-11.02 Z1.71 F1350.0
G1 X13.4 Y-8.71 Z1.71 F1350.0
G1 X12.98 Y-9.14 Z1.71 F1350.0
G1 X12.98 Y-11.46 Z1.71 F1350.0
G1 X12.57 Y-11.89 Z1.71 F1350.0
G1 X12.57 Y-9.57 Z1.71 F1350.0
G1 X12.15 Y-9.99 Z1.71 F1350.0
G1 X12.15 Y-12.33 Z1.71 F1350.0
G1 X11.73 Y-12.77 Z1.71 F1350.0
G1 X11.73 Y-10.42 Z1.71 F1350.0
G1 X11.31 Y-10.85 Z1.71 F1350.0
G1 X11.31 Y-13.2 Z1.71 F1350.0
G1 X10.89 Y-13.64 Z1.71 F1350.0
G1 X10.89 Y-11.28 Z1.71 F1350.0
G1 X10.47 Y-11.71 Z1.71 F1350.0
G1 X10.47 Y-14.07 Z1.71 F1350.0
G1 X10.05 Y-14.51 Z1.71 F1350.0
G1 X10.05 Y-12.14 Z1.71 F1350.0
G1 X9.63 Y-12.57 Z1.71 F1350.0
G1 X9.63 Y-14.95 Z1.71 F1350.0
G1 X9.21 Y-15.38 Z1.71 F1350.0
G1 X9.21 Y-13.0 Z1.71 F1350.0
G1 X8.8 Y-13.43 Z1.71 F1350.0
G1 X8.8 Y-15.53 Z1.71 F1350.0
G1 X8.38 Y-15.59 Z1.71 F1350.0
G1 X8.38 Y-13.79 Z1.71 F1350.0
M103
G1 X7.96 Y-13.92 Z1.71 F1800.0
M101
G1 X7.96 Y-15.64 Z1.71 F1350.0
G1 X7.54 Y-15.7 Z1.71 F1350.0
G1 X7.54 Y-13.97 Z1.71 F1350.0
M103
G1 X7.12 Y-14.03 Z1.71 F1800.0
M101
G1 X7.12 Y-15.76 Z1.71 F1350.0
G1 X6.7 Y-15.82 Z1.71 F1350.0
G1 X6.7 Y-15.77 Z1.71 F1350.0
M108 R35.0
M102
G1 X6.7 Y-14.08 Z1.71 F1350.0
M108 R1.179
M103
M108 R35.0
M101
G1 X6.28 Y-15.88 Z1.71 F1419.386
M108 R1.179
G1 X6.28 Y-14.13 Z1.71 F1350.0
G1 X5.86 Y-14.19 Z1.71 F1350.0
G1 X5.86 Y-15.94 Z1.71 F1350.0
M103
G1 X5.45 Y-16.0 Z1.71 F1800.0
M101
G1 X5.45 Y-14.24 Z1.71 F1350.0
G1 X5.03 Y-14.29 Z1.71 F1350.0
G1 X5.03 Y-16.05 Z1.71 F1350.0
G1 X4.61 Y-16.11 Z1.71 F1350.0
G1 X4.61 Y-14.35 Z1.71 F1350.0
G1 X4.19 Y-14.4 Z1.71 F1350.0
G1 X4.19 Y-16.17 Z1.71 F1350.0
G1 X3.77 Y-16.23 Z1.71 F1350.0
G1 X3.77 Y-14.45 Z1.71 F1350.0
G1 X3.35 Y-14.51 Z1.71 F1350.0
G1 X3.35 Y-16.29 Z1.71 F1350.0
G1 X2.93 Y-16.35 Z1.71 F1350.0
G1 X2.93 Y-14.56 Z1.71 F1350.0
G1 X2.51 Y-14.61 Z1.71 F1350.0
G1 X2.51 Y-16.41 Z1.71 F1350.0
M103
G1 X2.09 Y-16.47 Z1.71 F1800.0
M101
G1 X2.09 Y-14.67 Z1.71 F1350.0
G1 X1.68 Y-14.72 Z1.71 F1350.0
G1 X1.68 Y-14.84 Z1.71 F1350.0
M108 R35.0
M102
G1 X1.68 Y-16.52 Z1.71 F1350.0
M108 R1.179
M103
M108 R35.0
M101
G1 X1.26 Y-14.77 Z1.71 F1384.949
M108 R1.179
G1 X1.26 Y-16.58 Z1.71 F1350.0
G1 X0.84 Y-16.61 Z1.71 F1350.0
G1 X0.84 Y-14.85 Z1.71 F1350.0
M103
G1 X0.42 Y-14.8 Z1.71 F1800.0
M101
G1 X0.42 Y-16.55 Z1.71 F1350.0
G1 X-0.0 Y-16.5 Z1.71 F1350.0
G1 X-0.0 Y-14.75 Z1.71 F1350.0
M103
G1 X-0.42 Y-14.7 Z1.71 F1800.0
M101
G1 X-0.42 Y-16.45 Z1.71 F1350.0
G1 X-0.84 Y-16.4 Z1.71 F1350.0
G1 X-0.84 Y-14.65 Z1.71 F1350.0
M103
G1 X-1.26 Y-14.6 Z1.71 F1800.0
M101
G1 X-1.26 Y-16.35 Z1.71 F1350.0
G1 X-1.68 Y-16.3 Z1.71 F1350.0
G1 X-1.68 Y-16.23 Z1.71 F1350.0
M108 R35.0
M102
G1 X-1.68 Y-14.55 Z1.71 F1350.0
M108 R1.179
M103
M108 R35.0
M101
G1 X-2.09 Y-16.25 Z1.71 F1345.896
M108 R1.179
G1 X-2.09 Y-14.49 Z1.71 F1350.0
G1 X-2.51 Y-14.44 Z1.71 F1350.0
G1 X-2.51 Y-16.19 Z1.71 F1350.0
M103
G1 X-2.93 Y-16.14 Z1.71 F1800.0
M101
G1 X-2.93 Y-14.39 Z1.71 F1350.0
G1 X-3.35 Y-14.34 Z1.71 F1350.0
G1 X-3.35 Y-16.09 Z1.71 F1350.0
M103
G1 X-3.77 Y-16.04 Z1.71 F1800.0
M101
G1 X-3.77 Y-14.29 Z1.71 F1350.0
G1 X-4.19 Y-14.24 Z1.71 F1350.0
G1 X-4.19 Y-15.99 Z1.71 F1350.0
M103
G1 X-4.61 Y-15.94 Z1.71 F1800.0
M101
G1 X-4.61 Y-14.19 Z1.71 F1350.0
G1 X-5.03 Y-14.14 Z1.71 F1350.0
G1 X-5.03 Y-15.89 Z1.71 F1350.0
M103
G1 X-5.45 Y-15.83 Z1.71 F1800.0
M101
G1 X-5.45 Y-14.09 Z1.71 F1350.0
G1 X-5.86 Y-14.04 Z1.71 F1350.0
G1 X-5.86 Y-15.78 Z1.71 F1350.0
M103
G1 X-6.28 Y-15.73 Z1.71 F1800.0
M101
G1 X-6.28 Y-13.99 Z1.71 F1350.0
G1 X-6.7 Y-13.94 Z1.71 F1350.0
G1 X-6.7 Y-13.99 Z1.71 F1350.0
M108 R35.0
M102
G1 X-6.7 Y-15.68 Z1.71 F1350.0
M108 R1.179
M103
M108 R35.0
M101
G1 X-7.12 Y-13.87 Z1.71 F1432.874
M108 R1.179
G1 X-7.12 Y-15.63 Z1.71 F1350.0
M103
G1 X-7.54 Y-15.56 Z1.71 F1800.0
M101
G1 X-7.54 Y-13.72 Z1.71 F1350.0
M103
G1 X-7.96 Y-13.58 Z1.71 F1800.0
M101
G1 X-7.96 Y-15.41 Z1.71 F1350.0
M103
G1 X-8.38 Y-15.26 Z1.71 F1800.0
M101
G1 X-8.38 Y-13.44 Z1.71 F1350.0
G1 X-8.8 Y-13.3 Z1.71 F1350.0
G1 X-8.8 Y-15.1 Z1.71 F1350.0
M103
G1 X-9.21 Y-14.95 Z1.71 F1800.0
M101
G1 X-9.21 Y-13.16 Z1.71 F1350.0
M103
G1 X-9.63 Y-13.02 Z1.71 F1800.0
M101
G1 X-9.63 Y-14.8 Z1.71 F1350.0
M103
G1 X-10.05 Y-14.64 Z1.71 F1800.0
M101
G1 X-10.05 Y-12.87 Z1.71 F1350.0
M103
G1 X-10.47 Y-12.73 Z1.71 F1800.0
M101
G1 X-10.47 Y-14.49 Z1.71 F1350.0
M103
G1 X-10.89 Y-14.34 Z1.71 F1800.0
M101
G1 X-10.89 Y-12.59 Z1.71 F1350.0
M103
G1 X-11.31 Y-12.45 Z1.71 F1800.0
M101
G1 X-11.31 Y-14.18 Z1.71 F1350.0
M103
G1 X-11.73 Y-14.03 Z1.71 F1800.0
M101
G1 X-11.73 Y-12.31 Z1.71 F1350.0
M103
G1 X-12.15 Y-12.17 Z1.71 F1800.0
M101
G1 X-12.15 Y-13.88 Z1.71 F1350.0
M103
G1 X-12.57 Y-13.72 Z1.71 F1800.0
M101
G1 X-12.57 Y-11.89 Z1.71 F1350.0
G1 X-12.98 Y-11.24 Z1.71 F1350.0
G1 X-12.98 Y-13.57 Z1.71 F1350.0
M103
G1 X-13.4 Y-13.42 Z1.71 F1800.0
M101
G1 X-13.4 Y-10.65 Z1.71 F1350.0
G1 X-13.82 Y-10.07 Z1.71 F1350.0
G1 X-13.82 Y-12.99 Z1.71 F1350.0
M103
G1 X-14.24 Y-12.37 Z1.71 F1800.0
M101
G1 X-14.24 Y-9.48 Z1.71 F1350.0
G1 X-14.66 Y-8.89 Z1.71 F1350.0
G1 X-14.66 Y-11.75 Z1.71 F1350.0
G1 X-15.08 Y-11.13 Z1.71 F1350.0
G1 X-15.08 Y-8.31 Z1.71 F1350.0
G1 X-15.5 Y-7.72 Z1.71 F1350.0
G1 X-15.5 Y-10.51 Z1.71 F1350.0
G1 X-15.92 Y-9.9 Z1.71 F1350.0
G1 X-15.92 Y-7.14 Z1.71 F1350.0
G1 X-16.34 Y-6.55 Z1.71 F1350.0
G1 X-16.34 Y-9.28 Z1.71 F1350.0
G1 X-16.75 Y-8.66 Z1.71 F1350.0
G1 X-16.75 Y-7.65 Z1.71 F1350.0
M108 R35.0
M102
G1 X-16.75 Y-5.96 Z1.71 F1350.0
M108 R1.179
M103
M108 R35.0
M101
G1 X-16.75 Y-4.84 Z1.71 F865.385
M108 R1.179
G1 X-16.75 Y-2.58 Z1.71 F1350.0
M108 R35.0
M102
G1 X-16.75 Y-0.89 Z1.71 F1350.0
M108 R1.179
M103
M108 R35.0
M101
G1 X-17.17 Y-1.96 Z1.71 F886.082
M108 R1.179
G1 X-17.17 Y-8.04 Z1.71 F1350.0
G1 X-17.59 Y-7.42 Z1.71 F1350.0
G1 X-17.59 Y-4.72 Z1.71 F1350.0
M108 R35.0
M102
G1 X-17.59 Y-3.03 Z1.71 F1350.0
M108 R1.179
M103
M108 R35.0
M101
G1 X-18.01 Y-4.11 Z1.71 F886.082
M108 R1.179
G1 X-18.01 Y-6.81 Z1.71 F1350.0
M103
G1 X-18.43 Y-6.19 Z1.71 F1800.0
M101
M108 R35.0
M102
G1 X-18.43 Y-5.18 Z1.71 F808.0
M108 R1.179
M103
G1 X-17.25 Y-0.72 Z1.71 F2400.0
M108 R35.0
M101
G1 X-16.85 Y0.79 Z1.71 F2400.0
G1 X-16.75 Y2.35 Z1.71 F2400.0
M108 R1.179
G1 X-16.75 Y8.29 Z1.71 F1350.0
G1 X-17.17 Y7.75 Z1.71 F1350.0
G1 X-17.17 Y5.22 Z1.71 F1350.0
M108 R35.0
M102
G1 X-17.17 Y3.53 Z1.71 F1350.0
M108 R1.179
M103
M108 R35.0
M101
G1 X-17.59 Y4.72 Z1.71 F967.568
M108 R1.179
G1 X-17.59 Y6.96 Z1.71 F1350.0
M108 R35.0
M102
G1 X-17.59 Y7.21 Z1.71 F1350.0
G1 X-18.01 Y6.67 Z1.71 F1350.0
G1 X-18.01 Y5.91 Z1.71 F1350.0
M108 R1.179
M103
G1 X-11.01 Y12.21 Z1.71 F2400.0
G1 X-7.94 Y13.81 Z1.71 F1800.0
M108 R35.0
M101
G1 X-5.86 Y14.89 Z1.71 F1800.0
M108 R1.179
G1 X-5.86 Y16.59 Z1.71 F1350.0
G1 X-5.45 Y16.66 Z1.71 F1350.0
G1 X-5.45 Y14.96 Z1.71 F1350.0
M103
(</surroundingLoop>)
(</layer>)
(<layer> 2.01 )
(<surroundingLoop>)
(<boundaryPerimeter>)
(<boundaryPoint> X17.887 Y8.731 Z2.01 </boundaryPoint>)
(<boundaryPoint> X17.803 Y9.261 Z2.01 </boundaryPoint>)
(<boundaryPoint> X17.571 Y9.583 Z2.01 </boundaryPoint>)
(<boundaryPoint> X9.158 Y17.489 Z2.01 </boundaryPoint>)
(<boundaryPoint> X8.919 Y17.634 Z2.01 </boundaryPoint>)
(<boundaryPoint> X0.883 Y18.75 Z2.01 </boundaryPoint>)
(<boundaryPoint> X-6.868 Y17.438 Z2.01 </boundaryPoint>)
(<boundaryPoint> X-7.25 Y17.437 Z2.01 </boundaryPoint>)
(<boundaryPoint> X-13.211 Y14.711 Z2.01 </boundaryPoint>)
(<boundaryPoint> X-13.35 Y14.361 Z2.01 </boundaryPoint>)
(<boundaryPoint> X-19.204 Y6.802 Z2.01 </boundaryPoint>)
(<boundaryPoint> X-19.247 Y6.365 Z2.01 </boundaryPoint>)
(<boundaryPoint> X-17.234 Y0.659 Z2.01 </boundaryPoint>)
(<boundaryPoint> X-19.723 Y-5.715 Z2.01 </boundaryPoint>)
(<boundaryPoint> X-19.675 Y-6.116 Z2.01 </boundaryPoint>)
(<boundaryPoint> X-14.397 Y-13.864 Z2.01 </boundaryPoint>)
(<boundaryPoint> X-14.246 Y-14.2 Z2.01 </boundaryPoint>)
(<boundaryPoint> X-7.754 Y-16.594 Z2.01 </boundaryPoint>)
(<boundaryPoint> X1.009 Y-17.677 Z2.01 </boundaryPoint>)
(<boundaryPoint> X1.354 Y-17.555 Z2.01 </boundaryPoint>)
(<boundaryPoint> X9.528 Y-16.426 Z2.01 </boundaryPoint>)
(<boundaryPoint> X9.874 Y-16.175 Z2.01 </boundaryPoint>)
(<boundaryPoint> X17.833 Y-7.845 Z2.01 </boundaryPoint>)
(<boundaryPoint> X17.915 Y-7.446 Z2.01 </boundaryPoint>)
(<loop> inner )
G1 X-5.42 Y14.8 Z2.01 F2400.0
M101
G1 X0.96 Y15.8 Z2.01 F1800.0
G1 X7.64 Y15.05 Z2.01 F1800.0
G1 X8.0 Y14.83 Z2.01 F1800.0
G1 X14.75 Y8.56 Z2.01 F1800.0
G1 X15.07 Y8.14 Z2.01 F1800.0
G1 X15.17 Y7.48 Z2.01 F1800.0
G1 X15.18 Y-6.16 Z2.01 F1800.0
G1 X15.06 Y-6.74 Z2.01 F1800.0
G1 X8.6 Y-13.37 Z2.01 F1800.0
G1 X8.15 Y-13.71 Z2.01 F1800.0
G1 X1.3 Y-14.58 Z2.01 F1800.0
G1 X0.94 Y-14.73 Z2.01 F1800.0
G1 X-7.01 Y-13.76 Z2.01 F1800.0
G1 X-12.38 Y-11.93 Z2.01 F1800.0
G1 X-12.61 Y-11.44 Z2.01 F1800.0
G1 X-16.62 Y-5.83 Z2.01 F1800.0
G1 X-16.72 Y-5.13 Z2.01 F1800.0
G1 X-14.33 Y0.62 Z2.01 F1800.0
G1 X-16.31 Y5.74 Z2.01 F1800.0
G1 X-16.22 Y6.49 Z2.01 F1800.0
G1 X-11.6 Y12.19 Z2.01 F1800.0
G1 X-11.4 Y12.64 Z2.01 F1800.0
G1 X-7.57 Y14.26 Z2.01 F1800.0
M108 R35.0
M102
G1 X-6.5 Y14.71 Z2.01 F1800.0
G1 X-6.08 Y14.7 Z2.01 F1800.0
G1 X-5.42 Y14.8 Z2.01 F1800.0
M108 R1.179
M103
(</loop>)
(<loop> outer )
M108 R35.0
M101
G1 X-5.78 Y17.03 Z2.01 F1732.648
M108 R1.179
G1 X-7.11 Y16.81 Z2.01 F1800.0
G1 X-12.72 Y14.24 Z2.01 F1800.0
G1 X-12.8 Y14.05 Z2.01 F1800.0
G1 X-18.6 Y6.56 Z2.01 F1800.0
G1 X-18.61 Y6.44 Z2.01 F1800.0
G1 X-16.56 Y0.65 Z2.01 F1800.0
G1 X-19.08 Y-5.8 Z2.01 F1800.0
G1 X-19.07 Y-5.89 Z2.01 F1800.0
G1 X-13.78 Y-13.7 Z2.01 F1800.0
G1 X-7.61 Y-15.98 Z2.01 F1800.0
G1 X0.94 Y-17.04 Z2.01 F1800.0
G1 X1.21 Y-16.94 Z2.01 F1800.0
G1 X9.29 Y-15.82 Z2.01 F1800.0
G1 X17.25 Y-7.54 Z2.01 F1800.0
G1 X17.21 Y9.02 Z2.01 F1800.0
G1 X8.7 Y17.03 Z2.01 F1800.0
G1 X0.89 Y18.11 Z2.01 F1800.0
G1 X-5.78 Y17.03 Z2.01 F1800.0
M103
(</loop>)
(<perimeter> outer )
G1 X-5.85 Y17.4 Z2.01 F2400.0
M101
G1 X-6.85 Y17.23 Z2.01 F1800.0
G1 X-7.2 Y17.23 Z2.01 F1800.0
G1 X-13.05 Y14.55 Z2.01 F1800.0
G1 X-13.17 Y14.26 Z2.01 F1800.0
G1 X-19.0 Y6.72 Z2.01 F1800.0
G1 X-19.03 Y6.39 Z2.01 F1800.0
G1 X-17.01 Y0.66 Z2.01 F1800.0
G1 X-19.51 Y-5.74 Z2.01 F1800.0
G1 X-19.47 Y-6.04 Z2.01 F1800.0
G1 X-14.21 Y-13.76 Z2.01 F1800.0
G1 X-14.09 Y-14.03 Z2.01 F1800.0
G1 X-7.7 Y-16.39 Z2.01 F1800.0
G1 X0.99 Y-17.46 Z2.01 F1800.0
G1 X1.3 Y-17.35 Z2.01 F1800.0
G1 X9.45 Y-16.23 Z2.01 F1800.0
G1 X9.74 Y-16.02 Z2.01 F1800.0
G1 X17.64 Y-7.74 Z2.01 F1800.0
G1 X17.7 Y-7.42 Z2.01 F1800.0
G1 X17.68 Y8.71 Z2.01 F1800.0
G1 X17.6 Y9.18 Z2.01 F1800.0
G1 X17.41 Y9.44 Z2.01 F1800.0
G1 X9.03 Y17.32 Z2.01 F1800.0
G1 X8.85 Y17.43 Z2.01 F1800.0
G1 X0.89 Y18.54 Z2.01 F1800.0
G1 X-3.63 Y17.77 Z2.01 F1800.0
M108 R35.0
M102
G1 X-5.85 Y17.4 Z2.01 F1800.0
M108 R1.179
M103
(</perimeter>)
(</boundaryPerimeter>)
(<surroundingLoop>)
(<boundaryPerimeter>)
(<boundaryPoint> X7.433 Y14.442 Z2.01 </boundaryPoint>)
(<boundaryPoint> X7.615 Y14.328 Z2.01 </boundaryPoint>)
(<boundaryPoint> X14.283 Y8.142 Z2.01 </boundaryPoint>)
(<boundaryPoint> X14.47 Y7.889 Z2.01 </boundaryPoint>)
(<boundaryPoint> X14.541 Y7.428 Z2.01 </boundaryPoint>)
(<boundaryPoint> X14.551 Y-6.099 Z2.01 </boundaryPoint>)
(<boundaryPoint> X14.484 Y-6.435 Z2.01 </boundaryPoint>)
(<boundaryPoint> X8.186 Y-12.898 Z2.01 </boundaryPoint>)
(<boundaryPoint> X7.908 Y-13.102 Z2.01 </boundaryPoint>)
(<boundaryPoint> X1.131 Y-13.965 Z2.01 </boundaryPoint>)
(<boundaryPoint> X0.846 Y-14.085 Z2.01 </boundaryPoint>)
(<boundaryPoint> X-6.872 Y-13.144 Z2.01 </boundaryPoint>)
(<boundaryPoint> X-11.923 Y-11.421 Z2.01 </boundaryPoint>)
(<boundaryPoint> X-12.068 Y-11.121 Z2.01 </boundaryPoint>)
(<boundaryPoint> X-16.02 Y-5.59 Z2.01 </boundaryPoint>)
(<boundaryPoint> X-16.072 Y-5.211 Z2.01 </boundaryPoint>)
(<boundaryPoint> X-13.652 Y0.612 Z2.01 </boundaryPoint>)
(<boundaryPoint> X-15.671 Y5.818 Z2.01 </boundaryPoint>)
(<boundaryPoint> X-15.619 Y6.235 Z2.01 </boundaryPoint>)
(<boundaryPoint> X-11.065 Y11.857 Z2.01 </boundaryPoint>)
(<boundaryPoint> X-10.929 Y12.156 Z2.01 </boundaryPoint>)
(<boundaryPoint> X-6.385 Y14.082 Z2.01 </boundaryPoint>)
(<boundaryPoint> X-6.041 Y14.07 Z2.01 </boundaryPoint>)
(<boundaryPoint> X0.977 Y15.164 Z2.01 </boundaryPoint>)
(<perimeter> inner )
M108 R35.0
M101
G1 X-5.38 Y14.38 Z2.01 F2346.481
M108 R1.179
G1 X0.97 Y15.38 Z2.01 F1800.0
G1 X7.5 Y14.64 Z2.01 F1800.0
G1 X7.74 Y14.49 Z2.01 F1800.0
G1 X14.44 Y8.28 Z2.01 F1800.0
G1 X14.67 Y7.97 Z2.01 F1800.0
G1 X14.75 Y7.44 Z2.01 F1800.0
G1 X14.76 Y-6.12 Z2.01 F1800.0
G1 X14.68 Y-6.54 Z2.01 F1800.0
G1 X8.32 Y-13.06 Z2.01 F1800.0
G1 X7.99 Y-13.3 Z2.01 F1800.0
G1 X1.19 Y-14.17 Z2.01 F1800.0
G1 X0.88 Y-14.3 Z2.01 F1800.0
G1 X-6.92 Y-13.35 Z2.01 F1800.0
G1 X-12.07 Y-11.59 Z2.01 F1800.0
G1 X-12.25 Y-11.23 Z2.01 F1800.0
G1 X-16.22 Y-5.67 Z2.01 F1800.0
G1 X-16.29 Y-5.18 Z2.01 F1800.0
G1 X-13.88 Y0.61 Z2.01 F1800.0
G1 X-15.88 Y5.79 Z2.01 F1800.0
G1 X-15.82 Y6.32 Z2.01 F1800.0
G1 X-11.24 Y11.97 Z2.01 F1800.0
G1 X-11.09 Y12.32 Z2.01 F1800.0
G1 X-6.42 Y14.29 Z2.01 F1800.0
G1 X-6.05 Y14.28 Z2.01 F1800.0
G1 X-5.38 Y14.38 Z2.01 F1800.0
M103
(</perimeter>)
(</boundaryPerimeter>)
(</surroundingLoop>)
G1 X-5.41 Y15.08 Z2.01 F2400.0
M101
G1 X-7.99 Y15.08 Z2.01 F1800.0
M108 R35.0
M102
G1 X-10.24 Y15.08 Z2.01 F1800.0
M108 R1.179
M103
M108 R35.0
M101
G1 X-9.32 Y15.5 Z2.01 F774.832
M108 R1.179
G1 X-4.97 Y15.5 Z2.01 F1800.0
M108 R35.0
M102
G1 X-2.73 Y15.5 Z2.01 F1800.0
M108 R1.179
M103
M108 R35.0
M101
G1 X-3.18 Y17.17 Z2.01 F1335.355
M108 R1.179
G1 X3.43 Y17.17 Z2.01 F1800.0
M108 R35.0
M102
G1 X5.68 Y17.17 Z2.01 F1800.0
M108 R1.179
M103
M108 R35.0
M101
G1 X6.09 Y15.5 Z2.01 F1325.953
M108 R1.179
G1 X9.93 Y15.5 Z2.01 F1800.0
G1 X10.38 Y15.08 Z2.01 F1800.0
G1 X8.11 Y15.08 Z2.01 F1800.0
G1 X8.58 Y14.66 Z2.01 F1800.0
G1 X10.82 Y14.66 Z2.01 F1800.0
G1 X11.26 Y14.24 Z2.01 F1800.0
G1 X9.03 Y14.24 Z2.01 F1800.0
G1 X9.48 Y13.82 Z2.01 F1800.0
G1 X11.71 Y13.82 Z2.01 F1800.0
G1 X12.15 Y13.4 Z2.01 F1800.0
G1 X9.94 Y13.4 Z2.01 F1800.0
G1 X10.39 Y12.98 Z2.01 F1800.0
G1 X12.6 Y12.98 Z2.01 F1800.0
G1 X13.04 Y12.57 Z2.01 F1800.0
G1 X10.84 Y12.57 Z2.01 F1800.0
G1 X11.29 Y12.15 Z2.01 F1800.0
G1 X13.49 Y12.15 Z2.01 F1800.0
G1 X13.93 Y11.73 Z2.01 F1800.0
G1 X11.74 Y11.73 Z2.01 F1800.0
G1 X12.19 Y11.31 Z2.01 F1800.0
G1 X14.37 Y11.31 Z2.01 F1800.0
G1 X14.82 Y10.89 Z2.01 F1800.0
G1 X12.64 Y10.89 Z2.01 F1800.0
G1 X13.1 Y10.47 Z2.01 F1800.0
G1 X15.26 Y10.47 Z2.01 F1800.0
G1 X15.71 Y10.05 Z2.01 F1800.0
G1 X13.55 Y10.05 Z2.01 F1800.0
G1 X14.0 Y9.63 Z2.01 F1800.0
G1 X16.15 Y9.63 Z2.01 F1800.0
G1 X16.6 Y9.21 Z2.01 F1800.0
G1 X14.45 Y9.21 Z2.01 F1800.0
G1 X14.9 Y8.8 Z2.01 F1800.0
G1 X16.93 Y8.8 Z2.01 F1800.0
G1 X16.93 Y8.38 Z2.01 F1800.0
G1 X15.23 Y8.38 Z2.01 F1800.0
M103
G1 X15.37 Y7.96 Z2.01 F2400.0
M101
G1 X16.94 Y7.96 Z2.01 F1800.0
G1 X16.94 Y7.54 Z2.01 F1800.0
G1 X15.44 Y7.54 Z2.01 F1800.0
G1 X15.44 Y7.12 Z2.01 F1800.0
G1 X16.94 Y7.12 Z2.01 F1800.0
G1 X16.94 Y6.7 Z2.01 F1800.0
G1 X15.44 Y6.7 Z2.01 F1800.0
G1 X15.44 Y6.28 Z2.01 F1800.0
G1 X16.94 Y6.28 Z2.01 F1800.0
G1 X16.94 Y5.86 Z2.01 F1800.0
G1 X15.44 Y5.86 Z2.01 F1800.0
G1 X15.44 Y5.45 Z2.01 F1800.0
G1 X16.94 Y5.45 Z2.01 F1800.0
G1 X16.95 Y5.03 Z2.01 F1800.0
G1 X15.44 Y5.03 Z2.01 F1800.0
G1 X15.44 Y4.61 Z2.01 F1800.0
G1 X16.95 Y4.61 Z2.01 F1800.0
G1 X16.95 Y4.19 Z2.01 F1800.0
G1 X15.44 Y4.19 Z2.01 F1800.0
G1 X15.44 Y3.77 Z2.01 F1800.0
G1 X16.95 Y3.77 Z2.01 F1800.0
G1 X16.95 Y3.35 Z2.01 F1800.0
G1 X15.45 Y3.35 Z2.01 F1800.0
G1 X15.45 Y2.93 Z2.01 F1800.0
G1 X16.95 Y2.93 Z2.01 F1800.0
G1 X16.95 Y2.51 Z2.01 F1800.0
G1 X15.45 Y2.51 Z2.01 F1800.0
G1 X15.45 Y2.09 Z2.01 F1800.0
G1 X16.95 Y2.09 Z2.01 F1800.0
G1 X16.95 Y1.68 Z2.01 F1800.0
G1 X15.45 Y1.68 Z2.01 F1800.0
G1 X15.45 Y1.26 Z2.01 F1800.0
G1 X16.96 Y1.26 Z2.01 F1800.0
G1 X16.96 Y0.84 Z2.01 F1800.0
G1 X15.45 Y0.84 Z2.01 F1800.0
G1 X15.45 Y0.42 Z2.01 F1800.0
G1 X16.96 Y0.42 Z2.01 F1800.0
G1 X16.96 Y-0.0 Z2.01 F1800.0
G1 X15.45 Y-0.0 Z2.01 F1800.0
G1 X15.45 Y-0.42 Z2.01 F1800.0
G1 X16.96 Y-0.42 Z2.01 F1800.0
G1 X16.96 Y-0.84 Z2.01 F1800.0
G1 X15.45 Y-0.84 Z2.01 F1800.0
G1 X15.45 Y-1.26 Z2.01 F1800.0
G1 X16.96 Y-1.26 Z2.01 F1800.0
G1 X16.96 Y-1.68 Z2.01 F1800.0
G1 X15.45 Y-1.68 Z2.01 F1800.0
G1 X15.45 Y-2.09 Z2.01 F1800.0
G1 X16.97 Y-2.09 Z2.01 F1800.0
M103
G1 X16.97 Y-2.51 Z2.01 F2400.0
M101
G1 X15.45 Y-2.51 Z2.01 F1800.0
G1 X15.45 Y-2.93 Z2.01 F1800.0
G1 X16.97 Y-2.93 Z2.01 F1800.0
M103
G1 X16.97 Y-3.35 Z2.01 F2400.0
M101
G1 X15.45 Y-3.35 Z2.01 F1800.0
G1 X15.45 Y-3.77 Z2.01 F1800.0
G1 X16.97 Y-3.77 Z2.01 F1800.0
M103
G1 X16.97 Y-4.19 Z2.01 F2400.0
M101
G1 X15.45 Y-4.19 Z2.01 F1800.0
G1 X15.45 Y-4.61 Z2.01 F1800.0
G1 X16.97 Y-4.61 Z2.01 F1800.0
M103
G1 X16.97 Y-5.03 Z2.01 F2400.0
M101
G1 X15.45 Y-5.03 Z2.01 F1800.0
G1 X15.45 Y-5.45 Z2.01 F1800.0
G1 X16.98 Y-5.45 Z2.01 F1800.0
M103
G1 X16.98 Y-5.86 Z2.01 F2400.0
M101
G1 X15.45 Y-5.86 Z2.01 F1800.0
G1 X15.43 Y-6.28 Z2.01 F1800.0
G1 X16.98 Y-6.28 Z2.01 F1800.0
M103
G1 X16.98 Y-6.7 Z2.01 F2400.0
M101
G1 X15.35 Y-6.7 Z2.01 F1800.0
M103
G1 X15.07 Y-7.12 Z2.01 F2400.0
M101
G1 X16.98 Y-7.12 Z2.01 F1800.0
G1 X16.88 Y-7.54 Z2.01 F1800.0
G1 X14.66 Y-7.54 Z2.01 F1800.0
G1 X14.26 Y-7.96 Z2.01 F1800.0
G1 X16.48 Y-7.96 Z2.01 F1800.0
G1 X16.07 Y-8.38 Z2.01 F1800.0
G1 X13.85 Y-8.38 Z2.01 F1800.0
G1 X13.44 Y-8.8 Z2.01 F1800.0
G1 X15.67 Y-8.8 Z2.01 F1800.0
G1 X15.27 Y-9.21 Z2.01 F1800.0
G1 X13.03 Y-9.21 Z2.01 F1800.0
G1 X12.62 Y-9.63 Z2.01 F1800.0
G1 X14.86 Y-9.63 Z2.01 F1800.0
G1 X14.46 Y-10.05 Z2.01 F1800.0
G1 X12.22 Y-10.05 Z2.01 F1800.0
G1 X11.81 Y-10.47 Z2.01 F1800.0
G1 X14.06 Y-10.47 Z2.01 F1800.0
G1 X13.65 Y-10.89 Z2.01 F1800.0
G1 X11.4 Y-10.89 Z2.01 F1800.0
G1 X10.99 Y-11.31 Z2.01 F1800.0
G1 X13.25 Y-11.31 Z2.01 F1800.0
G1 X12.85 Y-11.73 Z2.01 F1800.0
G1 X10.58 Y-11.73 Z2.01 F1800.0
G1 X10.18 Y-12.15 Z2.01 F1800.0
G1 X12.45 Y-12.15 Z2.01 F1800.0
G1 X12.04 Y-12.57 Z2.01 F1800.0
G1 X9.77 Y-12.57 Z2.01 F1800.0
G1 X9.36 Y-12.98 Z2.01 F1800.0
G1 X11.64 Y-12.98 Z2.01 F1800.0
G1 X11.24 Y-13.4 Z2.01 F1800.0
G1 X8.95 Y-13.4 Z2.01 F1800.0
M103
G1 X8.45 Y-13.82 Z2.01 F2400.0
M101
G1 X10.83 Y-13.82 Z2.01 F1800.0
G1 X10.43 Y-14.24 Z2.01 F1800.0
G1 X8.34 Y-14.24 Z2.01 F1800.0
M108 R35.0
M102
G1 X6.09 Y-14.24 Z2.01 F1800.0
M108 R1.179
M103
M108 R35.0
M101
G1 X6.63 Y-15.92 Z2.01 F1353.764
M108 R1.179
G1 X-5.88 Y-15.92 Z2.01 F1800.0
G1 X-5.91 Y-15.91 Z2.01 F1800.0
M108 R35.0
M102
G1 X-8.12 Y-15.5 Z2.01 F1800.0
M108 R1.179
M103
M108 R35.0
M101
G1 X-5.85 Y-15.5 Z2.01 F1750.0
M108 R1.179
G1 X9.22 Y-15.5 Z2.01 F1800.0
G1 X9.63 Y-15.08 Z2.01 F1800.0
G1 X-7.01 Y-15.08 Z2.01 F1800.0
M108 R35.0
M102
G1 X-9.26 Y-15.08 Z2.01 F1800.0
M108 R1.179
M103
M108 R35.0
M101
G1 X-10.39 Y-14.66 Z2.01 F931.391
M108 R1.179
G1 X-4.12 Y-14.66 Z2.01 F1800.0
M108 R35.0
M102
G1 X-1.87 Y-14.66 Z2.01 F1800.0
M108 R1.179
M103
M108 R35.0
M101
G1 X-2.5 Y-16.34 Z2.01 F1374.43
M108 R1.179
G1 X1.34 Y-16.34 Z2.01 F1800.0
M108 R35.0
M102
G1 X3.59 Y-16.34 Z2.01 F1800.0
M108 R1.179
M103
M108 R35.0
M101
G1 X2.8 Y-14.66 Z2.01 F1426.553
M108 R1.179
G1 X7.78 Y-14.66 Z2.01 F1800.0
M108 R35.0
M102
G1 X10.03 Y-14.66 Z2.01 F1800.0
M108 R1.179
M103
G1 X0.91 Y-16.75 Z2.01 F2400.0
M101
G1 X0.89 Y-16.75 Z2.01 F1800.0
M103
G1 X-2.42 Y-15.41 Z2.01 F2400.0
M108 R35.0
M101
G1 X-5.31 Y-14.24 Z2.01 F2400.0
M108 R1.179
G1 X-9.28 Y-14.24 Z2.01 F1800.0
M108 R35.0
M102
G1 X-11.53 Y-14.24 Z2.01 F1800.0
M108 R1.179
M103
M108 R35.0
M101
G1 X-12.66 Y-13.82 Z2.01 F931.391
M108 R1.179
G1 X-9.92 Y-13.82 Z2.01 F1800.0
M108 R35.0
M102
G1 X-7.67 Y-13.82 Z2.01 F1800.0
M108 R1.179
M103
M108 R35.0
M101
G1 X-8.9 Y-13.4 Z2.01 F998.088
M108 R1.179
G1 X-13.65 Y-13.4 Z2.01 F1800.0
M103
G1 X-13.94 Y-12.98 Z2.01 F2400.0
M101
G1 X-12.38 Y-12.98 Z2.01 F1800.0
M108 R35.0
M102
G1 X-10.13 Y-12.98 Z2.01 F1800.0
M108 R1.179
M103
M108 R35.0
M101
G1 X-11.36 Y-12.57 Z2.01 F998.088
M108 R1.179
G1 X-14.22 Y-12.57 Z2.01 F1800.0
G1 X-14.5 Y-12.15 Z2.01 F1800.0
G1 X-12.57 Y-12.15 Z2.01 F1800.0
G1 X-12.78 Y-11.73 Z2.01 F1800.0
G1 X-14.79 Y-11.73 Z2.01 F1800.0
G1 X-15.07 Y-11.31 Z2.01 F1800.0
G1 X-13.04 Y-11.31 Z2.01 F1800.0
G1 X-13.34 Y-10.89 Z2.01 F1800.0
G1 X-15.36 Y-10.89 Z2.01 F1800.0
G1 X-15.64 Y-10.47 Z2.01 F1800.0
G1 X-13.64 Y-10.47 Z2.01 F1800.0
G1 X-13.94 Y-10.05 Z2.01 F1800.0
G1 X-15.92 Y-10.05 Z2.01 F1800.0
G1 X-16.2 Y-9.63 Z2.01 F1800.0
G1 X-14.24 Y-9.63 Z2.01 F1800.0
G1 X-14.54 Y-9.21 Z2.01 F1800.0
G1 X-16.49 Y-9.21 Z2.01 F1800.0
G1 X-16.77 Y-8.8 Z2.01 F1800.0
G1 X-14.84 Y-8.8 Z2.01 F1800.0
G1 X-15.13 Y-8.38 Z2.01 F1800.0
G1 X-17.06 Y-8.38 Z2.01 F1800.0
G1 X-17.34 Y-7.96 Z2.01 F1800.0
G1 X-15.44 Y-7.96 Z2.01 F1800.0
G1 X-15.73 Y-7.54 Z2.01 F1800.0
G1 X-17.62 Y-7.54 Z2.01 F1800.0
G1 X-17.91 Y-7.12 Z2.01 F1800.0
G1 X-16.03 Y-7.12 Z2.01 F1800.0
G1 X-16.33 Y-6.7 Z2.01 F1800.0
G1 X-18.19 Y-6.7 Z2.01 F1800.0
M103
G1 X-18.47 Y-6.28 Z2.01 F2400.0
M101
G1 X-16.63 Y-6.28 Z2.01 F1800.0
G1 X-16.89 Y-5.86 Z2.01 F1800.0
G1 X-18.76 Y-5.86 Z2.01 F1800.0
G1 X-18.65 Y-5.45 Z2.01 F1800.0
G1 X-16.95 Y-5.45 Z2.01 F1800.0
M103
G1 X-16.97 Y-5.03 Z2.01 F2400.0
M101
G1 X-18.49 Y-5.03 Z2.01 F1800.0
M103
G1 X-18.32 Y-4.61 Z2.01 F2400.0
M101
G1 X-16.8 Y-4.61 Z2.01 F1800.0
M103
G1 X-16.62 Y-4.19 Z2.01 F2400.0
M101
G1 X-18.16 Y-4.19 Z2.01 F1800.0
M103
G1 X-18.0 Y-3.77 Z2.01 F2400.0
M101
G1 X-16.45 Y-3.77 Z2.01 F1800.0
M103
G1 X-16.27 Y-3.35 Z2.01 F2400.0
M101
G1 X-17.83 Y-3.35 Z2.01 F1800.0
M103
G1 X-17.67 Y-2.93 Z2.01 F2400.0
M101
G1 X-16.1 Y-2.93 Z2.01 F1800.0
M103
G1 X-15.93 Y-2.51 Z2.01 F2400.0
M101
G1 X-17.51 Y-2.51 Z2.01 F1800.0
G1 X-17.34 Y-2.09 Z2.01 F1800.0
G1 X-15.75 Y-2.09 Z2.01 F1800.0
G1 X-15.58 Y-1.68 Z2.01 F1800.0
G1 X-17.18 Y-1.68 Z2.01 F1800.0
M103
G1 X-17.02 Y-1.26 Z2.01 F2400.0
M101
M108 R35.0
M102
G1 X-15.4 Y-1.26 Z2.01 F1288.8
M108 R1.179
M103
M108 R35.0
M101
G1 X-14.88 Y0.0 Z2.01 F1046.983
M108 R1.179
G1 X-16.52 Y0.0 Z2.01 F1800.0
M103
G1 X-16.36 Y0.42 Z2.01 F2400.0
M101
G1 X-14.71 Y0.42 Z2.01 F1800.0
G1 X-14.71 Y0.84 Z2.01 F1800.0
G1 X-16.34 Y0.84 Z2.01 F1800.0
M103
G1 X-16.49 Y1.26 Z2.01 F2400.0
M101
G1 X-14.87 Y1.26 Z2.01 F1800.0
M103
G1 X-15.03 Y1.68 Z2.01 F2400.0
M101
M108 R35.0
M102
G1 X-16.64 Y1.68 Z2.01 F1284.8
M108 R1.179
M103
M108 R35.0
M101
G1 X-17.08 Y2.93 Z2.01 F1024.745
M108 R1.179
G1 X-15.52 Y2.93 Z2.01 F1800.0
M103
G1 X-15.68 Y3.35 Z2.01 F2400.0
M101
G1 X-17.23 Y3.35 Z2.01 F1800.0
M103
G1 X-17.38 Y3.77 Z2.01 F2400.0
M101
G1 X-15.84 Y3.77 Z2.01 F1800.0
G1 X-16.0 Y4.19 Z2.01 F1800.0
G1 X-17.52 Y4.19 Z2.01 F1800.0
M103
G1 X-17.67 Y4.61 Z2.01 F2400.0
M101
G1 X-16.17 Y4.61 Z2.01 F1800.0
M103
G1 X-16.33 Y5.03 Z2.01 F2400.0
M101
G1 X-17.82 Y5.03 Z2.01 F1800.0
M103
G1 X-17.97 Y5.45 Z2.01 F2400.0
M101
G1 X-16.49 Y5.45 Z2.01 F1800.0
M103
G1 X-16.57 Y5.86 Z2.01 F2400.0
M101
G1 X-18.11 Y5.86 Z2.01 F1800.0
M103
G1 X-18.26 Y6.28 Z2.01 F2400.0
M101
G1 X-16.52 Y6.28 Z2.01 F1800.0
M103
G1 X-16.4 Y6.7 Z2.01 F2400.0
M101
G1 X-18.14 Y6.7 Z2.01 F1800.0
G1 X-17.82 Y7.12 Z2.01 F1800.0
G1 X-16.06 Y7.12 Z2.01 F1800.0
G1 X-15.72 Y7.54 Z2.01 F1800.0
G1 X-17.49 Y7.54 Z2.01 F1800.0
G1 X-17.17 Y7.96 Z2.01 F1800.0
G1 X-15.38 Y7.96 Z2.01 F1800.0
G1 X-15.04 Y8.38 Z2.01 F1800.0
G1 X-16.84 Y8.38 Z2.01 F1800.0
G1 X-16.52 Y8.8 Z2.01 F1800.0
G1 X-14.7 Y8.8 Z2.01 F1800.0
G1 X-14.36 Y9.21 Z2.01 F1800.0
G1 X-16.2 Y9.21 Z2.01 F1800.0
G1 X-15.87 Y9.63 Z2.01 F1800.0
G1 X-14.03 Y9.63 Z2.01 F1800.0
G1 X-13.69 Y10.05 Z2.01 F1800.0
G1 X-15.55 Y10.05 Z2.01 F1800.0
G1 X-15.22 Y10.47 Z2.01 F1800.0
G1 X-13.35 Y10.47 Z2.01 F1800.0
G1 X-13.01 Y10.89 Z2.01 F1800.0
G1 X-14.9 Y10.89 Z2.01 F1800.0
G1 X-14.57 Y11.31 Z2.01 F1800.0
G1 X-12.67 Y11.31 Z2.01 F1800.0
G1 X-12.33 Y11.73 Z2.01 F1800.0
G1 X-14.25 Y11.73 Z2.01 F1800.0
G1 X-13.93 Y12.15 Z2.01 F1800.0
G1 X-11.99 Y12.15 Z2.01 F1800.0
G1 X-11.73 Y12.57 Z2.01 F1800.0
G1 X-13.6 Y12.57 Z2.01 F1800.0
G1 X-13.43 Y12.78 Z2.01 F1800.0
M108 R35.0
M102
G1 X-13.28 Y12.98 Z2.01 F1800.0
G1 X-11.28 Y12.98 Z2.01 F1800.0
M108 R1.179
M103
M108 R35.0
M101
G1 X-10.29 Y13.4 Z2.01 F826.228
M108 R1.179
G1 X-12.95 Y13.4 Z2.01 F1800.0
G1 X-12.63 Y13.82 Z2.01 F1800.0
G1 X-11.55 Y13.82 Z2.01 F1800.0
M108 R35.0
M102
G1 X-9.3 Y13.82 Z2.01 F1800.0
M108 R1.179
M103
M108 R35.0
M101
G1 X-8.32 Y14.24 Z2.01 F825.519
M108 R1.179
G1 X-9.82 Y14.24 Z2.01 F1800.0
M108 R35.0
M102
G1 X-12.07 Y14.24 Z2.01 F1800.0
M108 R1.179
M103
M108 R35.0
M101
G1 X-11.15 Y14.66 Z2.01 F774.832
M108 R1.179
G1 X-9.58 Y14.66 Z2.01 F1800.0
M108 R35.0
M102
G1 X-7.33 Y14.66 Z2.01 F1800.0
M108 R1.179
M103
G1 X-3.11 Y15.39 Z2.01 F2400.0
M108 R35.0
M101
G1 X-0.04 Y15.92 Z2.01 F2400.0
M108 R1.179
G1 X-6.16 Y15.92 Z2.01 F1800.0
M108 R35.0
M102
G1 X-8.41 Y15.92 Z2.01 F1800.0
M108 R1.179
M103
M108 R35.0
M101
G1 X-7.49 Y16.34 Z2.01 F774.832
M108 R1.179
G1 X9.04 Y16.34 Z2.01 F1800.0
G1 X8.6 Y16.75 Z2.01 F1800.0
G1 X-3.5 Y16.75 Z2.01 F1800.0
M108 R35.0
M102
G1 X-5.75 Y16.75 Z2.01 F1800.0
M108 R1.179
M103
G1 X-0.44 Y17.28 Z2.01 F2400.0
M108 R35.0
M101
G1 X2.67 Y17.59 Z2.01 F2400.0
M108 R1.179
G1 X1.64 Y17.59 Z2.01 F1800.0
M108 R35.0
M102
G1 X-0.61 Y17.59 Z2.01 F1800.0
M108 R1.179
M103
G1 X-0.37 Y17.45 Z2.01 F2400.0
M108 R35.0
M101
G1 X2.34 Y15.92 Z2.01 F2400.0
M108 R1.179
G1 X7.24 Y15.92 Z2.01 F1800.0
M108 R35.0
M102
G1 X9.49 Y15.92 Z2.01 F1800.0
M108 R1.179
M103
G1 X0.97 Y15.46 Z2.01 F2400.0
G1 X-6.06 Y14.36 Z2.01 F2400.0
G1 X-6.44 Y14.36 Z2.01 F2400.0
G1 X-11.12 Y12.35 Z2.01 F2400.0
G1 X-11.31 Y12.01 Z2.01 F2400.0
G1 X-15.88 Y6.34 Z2.01 F2400.0
G1 X-15.95 Y5.78 Z2.01 F2400.0
G1 X-15.82 Y5.15 Z2.01 F2400.0
M108 R35.0
M101
G1 X-15.19 Y2.09 Z2.01 F2400.0
M108 R1.179
G1 X-16.56 Y2.09 Z2.01 F1800.0
M108 R35.0
M102
G1 X-16.79 Y2.09 Z2.01 F1800.0
G1 X-16.93 Y2.51 Z2.01 F1800.0
G1 X-15.36 Y2.51 Z2.01 F1800.0
M108 R1.179
M103
G1 X-15.58 Y2.01 Z2.01 F2400.0
M108 R35.0
M101
G1 X-16.85 Y-0.84 Z2.01 F2400.0
M108 R1.179
G1 X-15.39 Y-0.84 Z2.01 F1800.0
M108 R35.0
M102
G1 X-15.23 Y-0.84 Z2.01 F1800.0
G1 X-15.06 Y-0.42 Z2.01 F1800.0
G1 X-16.69 Y-0.42 Z2.01 F1800.0
M108 R1.179
M103
(</surroundingLoop>)
(</layer>)
(<operatingLayerEnd> </operatingLayerEnd>)
(<layer> 2.31 )
(<surroundingLoop>)
(<boundaryPerimeter>)
(<boundaryPoint> X18.021 Y8.439 Z2.31 </boundaryPoint>)
(<boundaryPoint> X17.88 Y9.322 Z2.31 </boundaryPoint>)
(<boundaryPoint> X17.494 Y9.858 Z2.31 </boundaryPoint>)
(<boundaryPoint> X9.331 Y17.53 Z2.31 </boundaryPoint>)
(<boundaryPoint> X8.932 Y17.772 Z2.31 </boundaryPoint>)
(<boundaryPoint> X1.504 Y18.839 Z2.31 </boundaryPoint>)
(<boundaryPoint> X0.846 Y18.869 Z2.31 </boundaryPoint>)
(<boundaryPoint> X-6.691 Y17.593 Z2.31 </boundaryPoint>)
(<boundaryPoint> X-7.328 Y17.592 Z2.31 </boundaryPoint>)
(<boundaryPoint> X-13.343 Y14.858 Z2.31 </boundaryPoint>)
(<boundaryPoint> X-13.574 Y14.275 Z2.31 </boundaryPoint>)
(<boundaryPoint> X-19.244 Y6.953 Z2.31 </boundaryPoint>)
(<boundaryPoint> X-19.316 Y6.225 Z2.31 </boundaryPoint>)
(<boundaryPoint> X-17.351 Y0.655 Z2.31 </boundaryPoint>)
(<boundaryPoint> X-19.781 Y-5.567 Z2.31 </boundaryPoint>)
(<boundaryPoint> X-19.7 Y-6.234 Z2.31 </boundaryPoint>)
(<boundaryPoint> X-14.588 Y-13.74 Z2.31 </boundaryPoint>)
(<boundaryPoint> X-14.337 Y-14.299 Z2.31 </boundaryPoint>)
(<boundaryPoint> X-7.816 Y-16.721 Z2.31 </boundaryPoint>)
(<boundaryPoint> X1.009 Y-17.819 Z2.31 </boundaryPoint>)
(<boundaryPoint> X1.585 Y-17.616 Z2.31 </boundaryPoint>)
(<boundaryPoint> X9.522 Y-16.52 Z2.31 </boundaryPoint>)
(<boundaryPoint> X10.098 Y-16.101 Z2.31 </boundaryPoint>)
(<boundaryPoint> X17.698 Y-8.187 Z2.31 </boundaryPoint>)
(<boundaryPoint> X17.911 Y-7.895 Z2.31 </boundaryPoint>)
(<boundaryPoint> X18.048 Y-7.231 Z2.31 </boundaryPoint>)
(<loop> inner )
M108 R35.0
M101
G1 X-15.16 Y-1.05 Z2.31 F1291.903
M108 R1.179
G1 X-14.47 Y0.62 Z2.31 F1800.0
G1 X-16.4 Y5.59 Z2.31 F1800.0
G1 X-16.27 Y6.62 Z2.31 F1800.0
G1 X-11.81 Y12.13 Z2.31 F1800.0
G1 X-11.51 Y12.78 Z2.31 F1800.0
G1 X-6.57 Y14.87 Z2.31 F1800.0
G1 X-5.92 Y14.84 Z2.31 F1800.0
G1 X0.93 Y15.91 Z2.31 F1800.0
G1 X7.66 Y15.18 Z2.31 F1800.0
G1 X8.14 Y14.88 Z2.31 F1800.0
G1 X14.7 Y8.79 Z2.31 F1800.0
G1 X15.14 Y8.2 Z2.31 F1800.0
G1 X15.29 Y7.23 Z2.31 F1800.0
G1 X15.3 Y-5.99 Z2.31 F1800.0
G1 X15.14 Y-6.79 Z2.31 F1800.0
G1 X8.79 Y-13.32 Z2.31 F1800.0
G1 X8.15 Y-13.79 Z2.31 F1800.0
G1 X1.48 Y-14.64 Z2.31 F1800.0
G1 X0.93 Y-14.87 Z2.31 F1800.0
G1 X-7.06 Y-13.89 Z2.31 F1800.0
G1 X-12.45 Y-12.03 Z2.31 F1800.0
G1 X-12.79 Y-11.35 Z2.31 F1800.0
G1 X-16.66 Y-5.92 Z2.31 F1800.0
G1 X-16.79 Y-4.97 Z2.31 F1800.0
G1 X-16.03 Y-3.13 Z2.31 F1800.0
M108 R35.0
M102
G1 X-15.16 Y-1.05 Z2.31 F1800.0
M108 R1.179
M103
(</loop>)
(<loop> outer )
M108 R35.0
M101
G1 X-17.05 Y-0.31 Z2.31 F1563.18
M108 R1.179
G1 X-19.14 Y-5.65 Z2.31 F1800.0
G1 X-19.09 Y-6.01 Z2.31 F1800.0
G1 X-14.04 Y-13.43 Z2.31 F1800.0
G1 X-13.87 Y-13.8 Z2.31 F1800.0
G1 X-7.67 Y-16.11 Z2.31 F1800.0
G1 X0.94 Y-17.18 Z2.31 F1800.0
G1 X1.44 Y-17.0 Z2.31 F1800.0
G1 X9.28 Y-15.92 Z2.31 F1800.0
G1 X9.68 Y-15.63 Z2.31 F1800.0
G1 X17.32 Y-7.63 Z2.31 F1800.0
G1 X17.42 Y-7.17 Z2.31 F1800.0
G1 X17.39 Y8.39 Z2.31 F1800.0
G1 X17.28 Y9.08 Z2.31 F1800.0
G1 X17.02 Y9.44 Z2.31 F1800.0
G1 X8.95 Y17.03 Z2.31 F1800.0
G1 X8.72 Y17.17 Z2.31 F1800.0
G1 X0.89 Y18.24 Z2.31 F1800.0
G1 X-6.64 Y16.96 Z2.31 F1800.0
G1 X-7.19 Y16.96 Z2.31 F1800.0
G1 X-12.85 Y14.39 Z2.31 F1800.0
G1 X-13.02 Y13.96 Z2.31 F1800.0
G1 X-18.64 Y6.71 Z2.31 F1800.0
G1 X-18.68 Y6.3 Z2.31 F1800.0
G1 X-16.68 Y0.64 Z2.31 F1800.0
G1 X-17.05 Y-0.31 Z2.31 F1800.0
M103
(</loop>)
(<perimeter> outer )
G1 X-17.45 Y-0.16 Z2.31 F2400.0
M101
G1 X-19.57 Y-5.59 Z2.31 F1800.0
G1 X-19.5 Y-6.16 Z2.31 F1800.0
G1 X-14.4 Y-13.64 Z2.31 F1800.0
G1 X-14.18 Y-14.13 Z2.31 F1800.0
G1 X-7.77 Y-16.52 Z2.31 F1800.0
G1 X0.99 Y-17.61 Z2.31 F1800.0
G1 X1.53 Y-17.41 Z2.31 F1800.0
G1 X9.44 Y-16.32 Z2.31 F1800.0
G1 X9.96 Y-15.94 Z2.31 F1800.0
G1 X17.54 Y-8.05 Z2.31 F1800.0
G1 X17.71 Y-7.81 Z2.31 F1800.0
G1 X17.84 Y-7.21 Z2.31 F1800.0
G1 X17.81 Y8.42 Z2.31 F1800.0
G1 X17.68 Y9.24 Z2.31 F1800.0
G1 X17.34 Y9.72 Z2.31 F1800.0
G1 X9.2 Y17.36 Z2.31 F1800.0
G1 X8.86 Y17.57 Z2.31 F1800.0
G1 X1.48 Y18.63 Z2.31 F1800.0
G1 X0.86 Y18.66 Z2.31 F1800.0
G1 X-6.67 Y17.38 Z2.31 F1800.0
G1 X-7.28 Y17.38 Z2.31 F1800.0
G1 X-13.18 Y14.7 Z2.31 F1800.0
G1 X-13.39 Y14.17 Z2.31 F1800.0
G1 X-19.04 Y6.87 Z2.31 F1800.0
G1 X-19.1 Y6.25 Z2.31 F1800.0
G1 X-17.59 Y1.95 Z2.31 F1800.0
M108 R35.0
M102
G1 X-17.13 Y0.65 Z2.31 F1800.0
G1 X-17.45 Y-0.16 Z2.31 F1800.0
M108 R1.179
M103
(</perimeter>)
(</boundaryPerimeter>)
(<surroundingLoop>)
(<boundaryPerimeter>)
(<boundaryPoint> X7.452 Y14.566 Z2.31 </boundaryPoint>)
(<boundaryPoint> X7.754 Y14.377 Z2.31 </boundaryPoint>)
(<boundaryPoint> X14.228 Y8.372 Z2.31 </boundaryPoint>)
(<boundaryPoint> X14.54 Y7.949 Z2.31 </boundaryPoint>)
(<boundaryPoint> X14.658 Y7.181 Z2.31 </boundaryPoint>)
(<boundaryPoint> X14.668 Y-5.924 Z2.31 </boundaryPoint>)
(<boundaryPoint> X14.556 Y-6.484 Z2.31 </boundaryPoint>)
(<boundaryPoint> X8.372 Y-12.845 Z2.31 </boundaryPoint>)
(<boundaryPoint> X7.908 Y-13.185 Z2.31 </boundaryPoint>)
(<boundaryPoint> X1.318 Y-14.024 Z2.31 </boundaryPoint>)
(<boundaryPoint> X0.843 Y-14.224 Z2.31 </boundaryPoint>)
(<boundaryPoint> X-6.918 Y-13.274 Z2.31 </boundaryPoint>)
(<boundaryPoint> X-12.001 Y-11.524 Z2.31 </boundaryPoint>)
(<boundaryPoint> X-12.244 Y-11.023 Z2.31 </boundaryPoint>)
(<boundaryPoint> X-16.058 Y-5.686 Z2.31 </boundaryPoint>)
(<boundaryPoint> X-16.144 Y-5.054 Z2.31 </boundaryPoint>)
(<boundaryPoint> X-13.791 Y0.609 Z2.31 </boundaryPoint>)
(<boundaryPoint> X-15.754 Y5.671 Z2.31 </boundaryPoint>)
(<boundaryPoint> X-15.668 Y6.366 Z2.31 </boundaryPoint>)
(<boundaryPoint> X-11.269 Y11.796 Z2.31 </boundaryPoint>)
(<boundaryPoint> X-11.042 Y12.294 Z2.31 </boundaryPoint>)
(<boundaryPoint> X-6.452 Y14.233 Z2.31 </boundaryPoint>)
(<boundaryPoint> X-5.879 Y14.212 Z2.31 </boundaryPoint>)
(<boundaryPoint> X0.945 Y15.276 Z2.31 </boundaryPoint>)
(<perimeter> inner )
M108 R35.0
M101
G1 X-14.79 Y-1.26 Z2.31 F2207.398
M108 R1.179
G1 X-14.02 Y0.61 Z2.31 F1800.0
G1 X-15.97 Y5.64 Z2.31 F1800.0
G1 X-15.87 Y6.45 Z2.31 F1800.0
G1 X-11.45 Y11.91 Z2.31 F1800.0
G1 X-11.2 Y12.46 Z2.31 F1800.0
G1 X-6.49 Y14.44 Z2.31 F1800.0
G1 X-5.89 Y14.42 Z2.31 F1800.0
G1 X0.94 Y15.49 Z2.31 F1800.0
G1 X7.52 Y14.77 Z2.31 F1800.0
G1 X7.88 Y14.54 Z2.31 F1800.0
G1 X14.38 Y8.51 Z2.31 F1800.0
G1 X14.74 Y8.03 Z2.31 F1800.0
G1 X14.87 Y7.2 Z2.31 F1800.0
G1 X14.88 Y-5.95 Z2.31 F1800.0
G1 X14.75 Y-6.59 Z2.31 F1800.0
G1 X8.51 Y-13.0 Z2.31 F1800.0
G1 X7.99 Y-13.39 Z2.31 F1800.0
G1 X1.37 Y-14.23 Z2.31 F1800.0
G1 X0.87 Y-14.44 Z2.31 F1800.0
G1 X-6.96 Y-13.48 Z2.31 F1800.0
G1 X-12.15 Y-11.69 Z2.31 F1800.0
G1 X-12.43 Y-11.13 Z2.31 F1800.0
G1 X-16.26 Y-5.77 Z2.31 F1800.0
G1 X-16.36 Y-5.03 Z2.31 F1800.0
G1 X-15.66 Y-3.34 Z2.31 F1800.0
M108 R35.0
M102
G1 X-14.79 Y-1.26 Z2.31 F1800.0
M108 R1.179
M103
(</perimeter>)
(</boundaryPerimeter>)
(</surroundingLoop>)
G1 X-15.02 Y-0.92 Z2.31 F2400.0
M108 R35.0
M101
G1 X-16.75 Y1.67 Z2.31 F2400.0
M108 R1.179
G1 X-15.79 Y1.99 Z2.31 F1800.0
G1 X-14.89 Y0.96 Z2.31 F1800.0
G1 X-14.89 Y0.3 Z2.31 F1800.0
G1 X-16.32 Y-0.47 Z2.31 F1800.0
G1 X-17.22 Y-1.49 Z2.31 F1800.0
G1 X-17.24 Y-2.29 Z2.31 F1800.0
M108 R35.0
M102
G1 X-17.25 Y-2.85 Z2.31 F1800.0
G1 X-15.82 Y-1.94 Z2.31 F1800.0
M108 R1.179
M103
M108 R35.0
M101
G1 X-16.75 Y-4.18 Z2.31 F1865.977
M108 R1.179
G1 X-17.72 Y-4.04 Z2.31 F1800.0
G1 X-18.62 Y-5.06 Z2.31 F1800.0
G1 X-18.62 Y-6.22 Z2.31 F1800.0
G1 X-17.77 Y-6.65 Z2.31 F1800.0
G1 X-17.69 Y-7.59 Z2.31 F1800.0
G1 X-16.75 Y-6.26 Z2.31 F1800.0
G1 X-16.67 Y-7.18 Z2.31 F1800.0
G1 X-15.82 Y-7.56 Z2.31 F1800.0
G1 X-13.96 Y-10.17 Z2.31 F1800.0
G1 X-16.75 Y-8.96 Z2.31 F1800.0
G1 X-15.36 Y-11.01 Z2.31 F1800.0
G1 X-14.51 Y-11.43 Z2.31 F1800.0
G1 X-14.43 Y-12.38 Z2.31 F1800.0
G1 X-13.37 Y-12.47 Z2.31 F1800.0
M108 R35.0
M102
G1 X-12.97 Y-12.51 Z2.31 F1800.0
G1 X-13.03 Y-11.47 Z2.31 F1800.0
G1 X-13.5 Y-10.82 Z2.31 F1800.0
M108 R1.179
M103
M108 R35.0
M101
G1 X-13.96 Y-13.06 Z2.31 F1759.968
M108 R1.179
G1 X-13.5 Y-13.65 Z2.31 F1800.0
G1 X-13.03 Y-13.82 Z2.31 F1800.0
G1 X-12.4 Y-13.56 Z2.31 F1800.0
G1 X-12.1 Y-14.17 Z2.31 F1800.0
G1 X-11.17 Y-12.76 Z2.31 F1800.0
G1 X-10.24 Y-13.08 Z2.31 F1800.0
G1 X-11.01 Y-14.08 Z2.31 F1800.0
G1 X-10.71 Y-14.69 Z2.31 F1800.0
G1 X-9.31 Y-15.21 Z2.31 F1800.0
G1 X-8.68 Y-14.94 Z2.31 F1800.0
G1 X-8.38 Y-15.55 Z2.31 F1800.0
G1 X-7.96 Y-15.34 Z2.31 F1800.0
G1 X-7.91 Y-15.72 Z2.31 F1800.0
G1 X-7.45 Y-15.86 Z2.31 F1800.0
G1 X-6.98 Y-15.92 Z2.31 F1800.0
G1 X-6.46 Y-15.51 Z2.31 F1800.0
G1 X-5.99 Y-15.57 Z2.31 F1800.0
G1 X-5.58 Y-16.09 Z2.31 F1800.0
G1 X-5.06 Y-15.69 Z2.31 F1800.0
G1 X-4.65 Y-16.21 Z2.31 F1800.0
G1 X-3.72 Y-16.32 Z2.31 F1800.0
G1 X-3.2 Y-15.92 Z2.31 F1800.0
G1 X-2.79 Y-14.69 Z2.31 F1800.0
G1 X-3.26 Y-14.63 Z2.31 F1800.0
G1 X-3.78 Y-15.03 Z2.31 F1800.0
G1 X-4.19 Y-14.52 Z2.31 F1800.0
G1 X-4.65 Y-14.46 Z2.31 F1800.0
G1 X-5.18 Y-14.86 Z2.31 F1800.0
G1 X-5.64 Y-14.81 Z2.31 F1800.0
G1 X-6.05 Y-14.29 Z2.31 F1800.0
G1 X-6.52 Y-14.23 Z2.31 F1800.0
G1 X-7.11 Y-14.62 Z2.31 F1800.0
G1 X-7.45 Y-14.04 Z2.31 F1800.0
G1 X-7.53 Y-14.08 Z2.31 F1800.0
M108 R35.0
M102
G1 X-8.06 Y-14.32 Z2.31 F1800.0
G1 X-8.53 Y-14.16 Z2.31 F1800.0
G1 X-8.84 Y-13.56 Z2.31 F1800.0
G1 X-9.31 Y-13.4 Z2.31 F1800.0
M108 R1.179
M103
G1 X-5.18 Y-15.23 Z2.31 F2400.0
M108 R35.0
M101
G1 X-2.33 Y-16.5 Z2.31 F2400.0
M108 R1.179
G1 X-1.86 Y-16.55 Z2.31 F1800.0
G1 X-1.86 Y-14.8 Z2.31 F1800.0
G1 X-0.93 Y-14.91 Z2.31 F1800.0
G1 X-0.52 Y-15.43 Z2.31 F1800.0
G1 X-0.87 Y-16.21 Z2.31 F1800.0
G1 X-1.4 Y-16.61 Z2.31 F1800.0
G1 X0.41 Y-16.38 Z2.31 F1800.0
G1 X0.93 Y-16.89 Z2.31 F1800.0
G1 X1.4 Y-16.73 Z2.31 F1800.0
G1 X1.8 Y-16.21 Z2.31 F1800.0
G1 X2.26 Y-16.14 Z2.31 F1800.0
G1 X2.79 Y-16.54 Z2.31 F1800.0
G1 X3.72 Y-16.41 Z2.31 F1800.0
G1 X0.93 Y-15.14 Z2.31 F1800.0
G1 X1.86 Y-14.86 Z2.31 F1800.0
G1 X2.33 Y-14.8 Z2.31 F1800.0
G1 X2.85 Y-15.21 Z2.31 F1800.0
G1 X3.26 Y-14.69 Z2.31 F1800.0
G1 X3.78 Y-15.09 Z2.31 F1800.0
G1 X4.19 Y-14.57 Z2.31 F1800.0
G1 X4.71 Y-14.97 Z2.31 F1800.0
G1 X4.59 Y-15.82 Z2.31 F1800.0
G1 X5.12 Y-16.22 Z2.31 F1800.0
G1 X5.97 Y-16.1 Z2.31 F1800.0
M108 R35.0
M102
G1 X6.05 Y-16.09 Z2.31 F1800.0
G1 X6.45 Y-15.56 Z2.31 F1800.0
G1 X6.11 Y-14.79 Z2.31 F1800.0
G1 X5.58 Y-14.39 Z2.31 F1800.0
M108 R1.179
M103
M108 R35.0
M101
G1 X7.45 Y-15.9 Z2.31 F1843.124
M108 R1.179
G1 X9.31 Y-15.56 Z2.31 F1800.0
G1 X16.29 Y-8.32 Z2.31 F1800.0
G1 X15.49 Y-8.49 Z2.31 F1800.0
G1 X13.63 Y-10.43 Z2.31 F1800.0
G1 X13.03 Y-9.34 Z2.31 F1800.0
G1 X11.64 Y-10.78 Z2.31 F1800.0
G1 X12.7 Y-11.41 Z2.31 F1800.0
G1 X10.83 Y-13.36 Z2.31 F1800.0
G1 X11.17 Y-11.26 Z2.31 F1800.0
G1 X8.84 Y-13.62 Z2.31 F1800.0
G1 X9.9 Y-14.33 Z2.31 F1800.0
G1 X9.32 Y-14.8 Z2.31 F1800.0
M108 R35.0
M102
G1 X8.78 Y-15.24 Z2.31 F1800.0
G1 X8.51 Y-14.4 Z2.31 F1800.0
G1 X7.91 Y-14.09 Z2.31 F1800.0
M108 R1.179
M103
G1 X11.69 Y-10.53 Z2.31 F2400.0
M108 R35.0
M101
G1 X13.96 Y-8.39 Z2.31 F2400.0
M108 R1.179
G1 X15.36 Y-6.95 Z2.31 F1800.0
G1 X16.75 Y-7.83 Z2.31 F1800.0
G1 X16.75 Y7.71 Z2.31 F1800.0
M108 R35.0
M102
G1 X16.75 Y9.32 Z2.31 F1800.0
G1 X16.29 Y9.75 Z2.31 F1800.0
M108 R1.179
M103
M108 R35.0
M101
G1 X15.36 Y8.36 Z2.31 F1292.025
M108 R1.179
G1 X14.89 Y8.98 Z2.31 F1800.0
G1 X8.38 Y15.03 Z2.31 F1800.0
G1 X7.91 Y15.34 Z2.31 F1800.0
G1 X7.57 Y15.92 Z2.31 F1800.0
G1 X10.85 Y14.23 Z2.31 F1800.0
G1 X15.51 Y9.85 Z2.31 F1800.0
G1 X15.36 Y10.63 Z2.31 F1800.0
G1 X9.09 Y16.52 Z2.31 F1800.0
M108 R35.0
M102
G1 X8.84 Y16.75 Z2.31 F1800.0
G1 X8.38 Y16.94 Z2.31 F1800.0
G1 X6.98 Y17.13 Z2.31 F1800.0
M108 R1.179
M103
G1 X2.18 Y17.45 Z2.31 F2400.0
M108 R35.0
M101
G1 X-0.93 Y17.66 Z2.31 F2400.0
M108 R1.179
G1 X-1.4 Y17.58 Z2.31 F1800.0
G1 X-1.78 Y17.04 Z2.31 F1800.0
G1 X-1.93 Y16.21 Z2.31 F1800.0
G1 X-1.4 Y15.82 Z2.31 F1800.0
G1 X0.0 Y16.04 Z2.31 F1800.0
G1 X0.39 Y16.57 Z2.31 F1800.0
G1 X0.93 Y16.18 Z2.31 F1800.0
G1 X1.36 Y16.6 Z2.31 F1800.0
G1 X1.86 Y16.08 Z2.31 F1800.0
G1 X2.33 Y16.03 Z2.31 F1800.0
G1 X2.84 Y16.44 Z2.31 F1800.0
G1 X3.26 Y15.93 Z2.31 F1800.0
G1 X3.62 Y16.22 Z2.31 F1800.0
G1 X4.19 Y15.83 Z2.31 F1800.0
G1 X3.98 Y16.27 Z2.31 F1800.0
G1 X4.65 Y15.78 Z2.31 F1800.0
G1 X6.05 Y15.63 Z2.31 F1800.0
G1 X6.57 Y16.04 Z2.31 F1800.0
G1 X5.67 Y16.86 Z2.31 F1800.0
G1 X6.05 Y17.26 Z2.31 F1800.0
G1 X4.93 Y17.08 Z2.31 F1800.0
G1 X4.13 Y17.05 Z2.31 F1800.0
G1 X3.72 Y17.57 Z2.31 F1800.0
G1 X3.19 Y17.18 Z2.31 F1800.0
G1 X2.73 Y17.24 Z2.31 F1800.0
G1 X2.33 Y17.77 Z2.31 F1800.0
G1 X2.09 Y17.59 Z2.31 F1800.0
M108 R35.0
M102
G1 X1.8 Y17.37 Z2.31 F1800.0
G1 X1.4 Y17.89 Z2.31 F1800.0
G1 X0.87 Y17.5 Z2.31 F1800.0
G1 X0.47 Y17.89 Z2.31 F1800.0
M108 R1.179
M103
G1 X-7.21 Y16.02 Z2.31 F2400.0
M108 R35.0
M101
G1 X-10.24 Y15.28 Z2.31 F2400.0
M108 R1.179
G1 X-10.71 Y15.07 Z2.31 F1800.0
G1 X-10.98 Y14.43 Z2.31 F1800.0
G1 X-11.44 Y14.22 Z2.31 F1800.0
G1 X-10.71 Y13.41 Z2.31 F1800.0
G1 X-9.31 Y14.0 Z2.31 F1800.0
G1 X-9.02 Y14.63 Z2.31 F1800.0
G1 X-8.38 Y14.4 Z2.31 F1800.0
G1 X-9.31 Y15.7 Z2.31 F1800.0
G1 X-8.84 Y15.91 Z2.31 F1800.0
G1 X-8.19 Y15.7 Z2.31 F1800.0
G1 X-7.91 Y16.34 Z2.31 F1800.0
G1 X-7.25 Y16.13 Z2.31 F1800.0
G1 X-7.45 Y14.79 Z2.31 F1800.0
G1 X-6.98 Y15.14 Z2.31 F1800.0
G1 X-6.05 Y15.12 Z2.31 F1800.0
G1 X-5.63 Y15.63 Z2.31 F1800.0
G1 X-6.96 Y16.23 Z2.31 F1800.0
G1 X-6.52 Y16.71 Z2.31 F1800.0
G1 X-5.97 Y16.33 Z2.31 F1800.0
G1 X-5.58 Y16.87 Z2.31 F1800.0
G1 X-5.12 Y16.95 Z2.31 F1800.0
G1 X-4.58 Y16.57 Z2.31 F1800.0
G1 X-5.19 Y15.7 Z2.31 F1800.0
G1 X-4.65 Y15.31 Z2.31 F1800.0
G1 X-3.26 Y15.53 Z2.31 F1800.0
G1 X-2.86 Y16.07 Z2.31 F1800.0
G1 X-3.16 Y16.3 Z2.31 F1800.0
M108 R35.0
M102
G1 X-4.19 Y17.1 Z2.31 F1800.0
G1 X-3.26 Y17.26 Z2.31 F1800.0
M108 R1.179
M103
G1 X-8.39 Y14.64 Z2.31 F2400.0
M108 R35.0
M101
G1 X-11.17 Y13.22 Z2.31 F2400.0
M108 R1.179
G1 X-11.64 Y13.02 Z2.31 F1800.0
G1 X-11.91 Y14.01 Z2.31 F1800.0
G1 X-12.57 Y14.22 Z2.31 F1800.0
G1 X-14.43 Y11.7 Z2.31 F1800.0
G1 X-12.1 Y12.2 Z2.31 F1800.0
G1 X-13.96 Y9.9 Z2.31 F1800.0
G1 X-14.89 Y11.1 Z2.31 F1800.0
G1 X-17.22 Y8.1 Z2.31 F1800.0
G1 X-14.43 Y9.33 Z2.31 F1800.0
G1 X-16.29 Y7.03 Z2.31 F1800.0
G1 X-17.69 Y7.49 Z2.31 F1800.0
G1 X-18.15 Y6.89 Z2.31 F1800.0
G1 X-18.15 Y5.63 Z2.31 F1800.0
G1 X-17.25 Y4.47 Z2.31 F1800.0
G1 X-16.29 Y4.56 Z2.31 F1800.0
M103
(</surroundingLoop>)
(</layer>)
(<layer> 2.61 )
(<surroundingLoop>)
(<boundaryPerimeter>)
(<boundaryPoint> X18.154 Y8.148 Z2.61 </boundaryPoint>)
(<boundaryPoint> X17.957 Y9.384 Z2.61 </boundaryPoint>)
(<boundaryPoint> X17.417 Y10.134 Z2.61 </boundaryPoint>)
(<boundaryPoint> X9.503 Y17.571 Z2.61 </boundaryPoint>)
(<boundaryPoint> X8.945 Y17.91 Z2.61 </boundaryPoint>)
(<boundaryPoint> X1.729 Y18.946 Z2.61 </boundaryPoint>)
(<boundaryPoint> X0.808 Y18.988 Z2.61 </boundaryPoint>)
(<boundaryPoint> X-6.514 Y17.749 Z2.61 </boundaryPoint>)
(<boundaryPoint> X-7.406 Y17.747 Z2.61 </boundaryPoint>)
(<boundaryPoint> X-13.475 Y15.005 Z2.61 </boundaryPoint>)
(<boundaryPoint> X-13.798 Y14.189 Z2.61 </boundaryPoint>)
(<boundaryPoint> X-19.285 Y7.104 Z2.61 </boundaryPoint>)
(<boundaryPoint> X-19.385 Y6.085 Z2.61 </boundaryPoint>)
(<boundaryPoint> X-17.468 Y0.651 Z2.61 </boundaryPoint>)
(<boundaryPoint> X-19.839 Y-5.418 Z2.61 </boundaryPoint>)
(<boundaryPoint> X-19.726 Y-6.353 Z2.61 </boundaryPoint>)
(<boundaryPoint> X-14.78 Y-13.615 Z2.61 </boundaryPoint>)
(<boundaryPoint> X-14.428 Y-14.398 Z2.61 </boundaryPoint>)
(<boundaryPoint> X-7.879 Y-16.848 Z2.61 </boundaryPoint>)
(<boundaryPoint> X1.009 Y-17.961 Z2.61 </boundaryPoint>)
(<boundaryPoint> X1.815 Y-17.678 Z2.61 </boundaryPoint>)
(<boundaryPoint> X9.516 Y-16.614 Z2.61 </boundaryPoint>)
(<boundaryPoint> X10.321 Y-16.028 Z2.61 </boundaryPoint>)
(<boundaryPoint> X17.69 Y-8.355 Z2.61 </boundaryPoint>)
(<boundaryPoint> X17.989 Y-7.946 Z2.61 </boundaryPoint>)
(<boundaryPoint> X18.18 Y-7.015 Z2.61 </boundaryPoint>)
(<loop> inner )
G1 X-16.16 Y4.61 Z2.61 F2400.0
M101
G1 X-16.48 Y5.44 Z2.61 F1800.0
G1 X-16.32 Y6.75 Z2.61 F1800.0
G1 X-12.01 Y12.07 Z2.61 F1800.0
G1 X-11.63 Y12.92 Z2.61 F1800.0
G1 X-6.63 Y15.02 Z2.61 F1800.0
G1 X-5.75 Y14.98 Z2.61 F1800.0
G1 X0.87 Y16.02 Z2.61 F1800.0
G1 X1.73 Y15.99 Z2.61 F1800.0
G1 X7.68 Y15.3 Z2.61 F1800.0
G1 X8.28 Y14.93 Z2.61 F1800.0
G1 X14.64 Y9.02 Z2.61 F1800.0
G1 X15.21 Y8.26 Z2.61 F1800.0
G1 X15.4 Y6.98 Z2.61 F1800.0
G1 X15.41 Y-5.81 Z2.61 F1800.0
G1 X15.21 Y-6.84 Z2.61 F1800.0
G1 X8.97 Y-13.27 Z2.61 F1800.0
G1 X8.15 Y-13.87 Z2.61 F1800.0
G1 X1.67 Y-14.7 Z2.61 F1800.0
G1 X0.93 Y-15.01 Z2.61 F1800.0
G1 X-7.11 Y-14.02 Z2.61 F1800.0
G1 X-12.53 Y-12.13 Z2.61 F1800.0
G1 X-12.96 Y-11.25 Z2.61 F1800.0
G1 X-16.7 Y-6.02 Z2.61 F1800.0
G1 X-16.86 Y-4.81 Z2.61 F1800.0
G1 X-14.61 Y0.61 Z2.61 F1800.0
G1 X-15.34 Y2.52 Z2.61 F1800.0
M108 R35.0
M102
G1 X-16.16 Y4.61 Z2.61 F1800.0
M108 R1.179
M103
(</loop>)
(<loop> outer )
M108 R35.0
M101
G1 X-17.97 Y3.97 Z2.61 F1480.666
M108 R1.179
G1 X-16.8 Y0.64 Z2.61 F1800.0
G1 X-19.2 Y-5.5 Z2.61 F1800.0
G1 X-19.12 Y-6.13 Z2.61 F1800.0
G1 X-14.23 Y-13.31 Z2.61 F1800.0
G1 X-13.96 Y-13.9 Z2.61 F1800.0
G1 X-7.73 Y-16.23 Z2.61 F1800.0
G1 X0.94 Y-17.32 Z2.61 F1800.0
G1 X1.67 Y-17.06 Z2.61 F1800.0
G1 X9.27 Y-16.01 Z2.61 F1800.0
G1 X9.91 Y-15.55 Z2.61 F1800.0
G1 X17.21 Y-7.95 Z2.61 F1800.0
G1 X17.4 Y-7.69 Z2.61 F1800.0
G1 X17.55 Y-6.95 Z2.61 F1800.0
G1 X17.53 Y8.1 Z2.61 F1800.0
G1 X17.36 Y9.14 Z2.61 F1800.0
G1 X16.94 Y9.72 Z2.61 F1800.0
G1 X9.12 Y17.07 Z2.61 F1800.0
G1 X8.73 Y17.31 Z2.61 F1800.0
G1 X1.67 Y18.32 Z2.61 F1800.0
G1 X0.85 Y18.36 Z2.61 F1800.0
G1 X-6.46 Y17.12 Z2.61 F1800.0
G1 X-7.27 Y17.12 Z2.61 F1800.0
G1 X-12.98 Y14.54 Z2.61 F1800.0
G1 X-13.25 Y13.88 Z2.61 F1800.0
G1 X-18.68 Y6.86 Z2.61 F1800.0
G1 X-18.75 Y6.16 Z2.61 F1800.0
G1 X-17.97 Y3.97 Z2.61 F1800.0
M103
(</loop>)
(<perimeter> outer )
G1 X-18.37 Y3.83 Z2.61 F2400.0
M101
G1 X-17.25 Y0.65 Z2.61 F1800.0
G1 X-19.63 Y-5.45 Z2.61 F1800.0
G1 X-19.52 Y-6.28 Z2.61 F1800.0
G1 X-14.6 Y-13.51 Z2.61 F1800.0
G1 X-14.27 Y-14.23 Z2.61 F1800.0
G1 X-7.82 Y-16.64 Z2.61 F1800.0
G1 X0.99 Y-17.75 Z2.61 F1800.0
G1 X1.76 Y-17.47 Z2.61 F1800.0
G1 X9.44 Y-16.41 Z2.61 F1800.0
G1 X10.18 Y-15.87 Z2.61 F1800.0
G1 X17.53 Y-8.22 Z2.61 F1800.0
G1 X17.79 Y-7.86 Z2.61 F1800.0
G1 X17.97 Y-6.99 Z2.61 F1800.0
G1 X17.95 Y8.13 Z2.61 F1800.0
G1 X17.76 Y9.3 Z2.61 F1800.0
G1 X17.26 Y9.99 Z2.61 F1800.0
G1 X9.38 Y17.4 Z2.61 F1800.0
G1 X8.87 Y17.71 Z2.61 F1800.0
G1 X1.71 Y18.74 Z2.61 F1800.0
G1 X0.82 Y18.78 Z2.61 F1800.0
G1 X-6.5 Y17.54 Z2.61 F1800.0
G1 X-7.37 Y17.54 Z2.61 F1800.0
G1 X-13.31 Y14.85 Z2.61 F1800.0
G1 X-13.61 Y14.08 Z2.61 F1800.0
G1 X-19.08 Y7.02 Z2.61 F1800.0
G1 X-19.17 Y6.11 Z2.61 F1800.0
G1 X-19.12 Y5.96 Z2.61 F1800.0
M108 R35.0
M102
G1 X-18.37 Y3.83 Z2.61 F1800.0
M108 R1.179
M103
(</perimeter>)
(</boundaryPerimeter>)
(<surroundingLoop>)
(<boundaryPerimeter>)
(<boundaryPoint> X1.685 Y15.363 Z2.61 </boundaryPoint>)
(<boundaryPoint> X7.471 Y14.691 Z2.61 </boundaryPoint>)
(<boundaryPoint> X7.894 Y14.426 Z2.61 </boundaryPoint>)
(<boundaryPoint> X14.173 Y8.601 Z2.61 </boundaryPoint>)
(<boundaryPoint> X14.61 Y8.009 Z2.61 </boundaryPoint>)
(<boundaryPoint> X14.776 Y6.933 Z2.61 </boundaryPoint>)
(<boundaryPoint> X14.785 Y-5.749 Z2.61 </boundaryPoint>)
(<boundaryPoint> X14.628 Y-6.533 Z2.61 </boundaryPoint>)
(<boundaryPoint> X8.558 Y-12.793 Z2.61 </boundaryPoint>)
(<boundaryPoint> X7.908 Y-13.269 Z2.61 </boundaryPoint>)
(<boundaryPoint> X1.505 Y-14.084 Z2.61 </boundaryPoint>)
(<boundaryPoint> X0.839 Y-14.363 Z2.61 </boundaryPoint>)
(<boundaryPoint> X-6.964 Y-13.405 Z2.61 </boundaryPoint>)
(<boundaryPoint> X-12.079 Y-11.626 Z2.61 </boundaryPoint>)
(<boundaryPoint> X-12.419 Y-10.925 Z2.61 </boundaryPoint>)
(<boundaryPoint> X-16.096 Y-5.781 Z2.61 </boundaryPoint>)
(<boundaryPoint> X-16.216 Y-4.896 Z2.61 </boundaryPoint>)
(<boundaryPoint> X-13.93 Y0.606 Z2.61 </boundaryPoint>)
(<boundaryPoint> X-15.837 Y5.524 Z2.61 </boundaryPoint>)
(<boundaryPoint> X-15.716 Y6.497 Z2.61 </boundaryPoint>)
(<boundaryPoint> X-11.473 Y11.735 Z2.61 </boundaryPoint>)
(<boundaryPoint> X-11.155 Y12.432 Z2.61 </boundaryPoint>)
(<boundaryPoint> X-6.519 Y14.383 Z2.61 </boundaryPoint>)
(<boundaryPoint> X-5.717 Y14.354 Z2.61 </boundaryPoint>)
(<boundaryPoint> X0.912 Y15.388 Z2.61 </boundaryPoint>)
(<perimeter> inner )
M108 R35.0
M101
G1 X-15.79 Y4.83 Z2.61 F2124.335
M108 R1.179
G1 X-16.05 Y5.5 Z2.61 F1800.0
G1 X-15.92 Y6.58 Z2.61 F1800.0
G1 X-11.65 Y11.85 Z2.61 F1800.0
G1 X-11.31 Y12.59 Z2.61 F1800.0
G1 X-6.56 Y14.59 Z2.61 F1800.0
G1 X-5.73 Y14.56 Z2.61 F1800.0
G1 X0.9 Y15.6 Z2.61 F1800.0
G1 X1.7 Y15.57 Z2.61 F1800.0
G1 X7.54 Y14.89 Z2.61 F1800.0
G1 X8.02 Y14.59 Z2.61 F1800.0
G1 X14.33 Y8.74 Z2.61 F1800.0
G1 X14.81 Y8.09 Z2.61 F1800.0
G1 X14.98 Y6.95 Z2.61 F1800.0
G1 X14.99 Y-5.77 Z2.61 F1800.0
G1 X14.82 Y-6.63 Z2.61 F1800.0
G1 X8.7 Y-12.95 Z2.61 F1800.0
G1 X7.99 Y-13.47 Z2.61 F1800.0
G1 X1.56 Y-14.29 Z2.61 F1800.0
G1 X0.87 Y-14.58 Z2.61 F1800.0
G1 X-7.01 Y-13.61 Z2.61 F1800.0
G1 X-12.23 Y-11.79 Z2.61 F1800.0
G1 X-12.6 Y-11.03 Z2.61 F1800.0
G1 X-16.3 Y-5.86 Z2.61 F1800.0
G1 X-16.43 Y-4.87 Z2.61 F1800.0
G1 X-14.16 Y0.61 Z2.61 F1800.0
G1 X-14.98 Y2.73 Z2.61 F1800.0
M108 R35.0
M102
G1 X-15.79 Y4.83 Z2.61 F1800.0
M108 R1.179
M103
(</perimeter>)
(</boundaryPerimeter>)
(</surroundingLoop>)
G1 X-15.92 Y4.4 Z2.61 F2400.0
M108 R35.0
M101
G1 X-16.78 Y1.4 Z2.61 F2400.0
M108 R1.179
G1 X-16.5 Y2.02 Z2.61 F1800.0
G1 X-17.1 Y2.33 Z2.61 F1800.0
G1 X-17.27 Y2.79 Z2.61 F1800.0
G1 X-16.99 Y3.41 Z2.61 F1800.0
G1 X-17.6 Y3.72 Z2.61 F1800.0
G1 X-17.32 Y4.34 Z2.61 F1800.0
G1 X-17.93 Y4.65 Z2.61 F1800.0
G1 X-18.25 Y5.58 Z2.61 F1800.0
G1 X-18.44 Y6.52 Z2.61 F1800.0
G1 X-18.24 Y6.98 Z2.61 F1800.0
G1 X-12.56 Y14.43 Z2.61 F1800.0
G1 X-12.19 Y14.15 Z2.61 F1800.0
G1 X-11.87 Y13.03 Z2.61 F1800.0
G1 X-12.51 Y12.76 Z2.61 F1800.0
G1 X-12.83 Y13.21 Z2.61 F1800.0
G1 X-14.27 Y11.35 Z2.61 F1800.0
G1 X-12.34 Y12.1 Z2.61 F1800.0
G1 X-14.22 Y9.77 Z2.61 F1800.0
G1 X-14.99 Y10.42 Z2.61 F1800.0
G1 X-16.43 Y8.56 Z2.61 F1800.0
G1 X-14.6 Y9.31 Z2.61 F1800.0
G1 X-16.48 Y6.98 Z2.61 F1800.0
G1 X-17.15 Y7.63 Z2.61 F1800.0
G1 X-17.98 Y6.21 Z2.61 F1800.0
G1 X-17.08 Y6.57 Z2.61 F1800.0
G1 X-16.68 Y6.05 Z2.61 F1800.0
G1 X-17.19 Y5.5 Z2.61 F1800.0
G1 X-16.65 Y5.12 Z2.61 F1800.0
G1 X-16.47 Y4.65 Z2.61 F1800.0
G1 X-16.72 Y4.02 Z2.61 F1800.0
G1 X-16.11 Y3.72 Z2.61 F1800.0
G1 X-15.02 Y0.93 Z2.61 F1800.0
G1 X-14.96 Y0.47 Z2.61 F1800.0
G1 X-15.54 Y-0.93 Z2.61 F1800.0
G1 X-16.57 Y0.47 Z2.61 F1800.0
G1 X-16.94 Y-0.47 Z2.61 F1800.0
G1 X-16.87 Y-1.57 Z2.61 F1800.0
G1 X-16.17 Y-1.22 Z2.61 F1800.0
G1 X-15.93 Y-1.86 Z2.61 F1800.0
G1 X-16.7 Y-3.72 Z2.61 F1800.0
G1 X-17.48 Y-1.86 Z2.61 F1800.0
G1 X-18.21 Y-3.72 Z2.61 F1800.0
G1 X-17.33 Y-4.01 Z2.61 F1800.0
G1 X-17.09 Y-4.65 Z2.61 F1800.0
G1 X-17.09 Y-5.12 Z2.61 F1800.0
G1 X-17.49 Y-5.65 Z2.61 F1800.0
G1 X-18.57 Y-4.65 Z2.61 F1800.0
G1 X-18.45 Y-5.52 Z2.61 F1800.0
G1 X-18.84 Y-6.05 Z2.61 F1800.0
G1 X-16.94 Y-8.84 Z2.61 F1800.0
G1 X-17.06 Y-6.79 Z2.61 F1800.0
G1 X-16.34 Y-6.98 Z2.61 F1800.0
G1 X-15.01 Y-8.84 Z2.61 F1800.0
G1 X-16.62 Y-9.31 Z2.61 F1800.0
G1 X-15.36 Y-11.17 Z2.61 F1800.0
G1 X-14.65 Y-11.37 Z2.61 F1800.0
G1 X-14.68 Y-9.31 Z2.61 F1800.0
G1 X-14.35 Y-9.77 Z2.61 F1800.0
G1 X-14.39 Y-10.51 Z2.61 F1800.0
G1 X-13.68 Y-10.71 Z2.61 F1800.0
G1 X-13.07 Y-11.64 Z2.61 F1800.0
G1 X-13.27 Y-12.3 Z2.61 F1800.0
G1 X-14.72 Y-12.1 Z2.61 F1800.0
G1 X-13.85 Y-13.5 Z2.61 F1800.0
G1 X-13.02 Y-13.96 Z2.61 F1800.0
G1 X-12.12 Y-12.57 Z2.61 F1800.0
G1 X-11.78 Y-14.43 Z2.61 F1800.0
G1 X-10.93 Y-13.47 Z2.61 F1800.0
G1 X-9.44 Y-13.5 Z2.61 F1800.0
G1 X-10.37 Y-14.46 Z2.61 F1800.0
G1 X-9.29 Y-15.36 Z2.61 F1800.0
G1 X-7.88 Y-15.39 Z2.61 F1800.0
G1 X-6.02 Y-14.43 Z2.61 F1800.0
G1 X-5.09 Y-16.29 Z2.61 F1800.0
G1 X-2.23 Y-14.89 Z2.61 F1800.0
G1 X-1.37 Y-16.75 Z2.61 F1800.0
G1 X1.91 Y-16.75 Z2.61 F1800.0
G1 X2.28 Y-14.89 Z2.61 F1800.0
G1 X5.28 Y-16.29 Z2.61 F1800.0
G1 X5.99 Y-14.89 Z2.61 F1800.0
G1 X8.65 Y-15.82 Z2.61 F1800.0
G1 X8.26 Y-14.37 Z2.61 F1800.0
G1 X11.39 Y-11.17 Z2.61 F1800.0
G1 X10.16 Y-14.89 Z2.61 F1800.0
G1 X16.87 Y-7.91 Z2.61 F1800.0
G1 X17.17 Y-7.45 Z2.61 F1800.0
G1 X17.27 Y-6.98 Z2.61 F1800.0
G1 X17.27 Y-0.93 Z2.61 F1800.0
G1 X16.15 Y-1.4 Z2.61 F1800.0
G1 X15.68 Y-1.86 Z2.61 F1800.0
G1 X16.15 Y-2.33 Z2.61 F1800.0
G1 X16.15 Y-2.79 Z2.61 F1800.0
G1 X15.68 Y-3.26 Z2.61 F1800.0
G1 X16.15 Y-3.72 Z2.61 F1800.0
G1 X16.15 Y-4.19 Z2.61 F1800.0
G1 X15.69 Y-4.65 Z2.61 F1800.0
G1 X16.15 Y-5.12 Z2.61 F1800.0
G1 X16.15 Y-5.63 Z2.61 F1800.0
G1 X15.64 Y-6.05 Z2.61 F1800.0
G1 X15.45 Y-6.98 Z2.61 F1800.0
G1 X13.4 Y-9.09 Z2.61 F1800.0
M108 R35.0
M102
G1 X11.84 Y-10.71 Z2.61 F1800.0
M108 R1.179
M103
G1 X14.88 Y-6.66 Z2.61 F2400.0
G1 X15.28 Y-3.56 Z2.61 F2400.0
M108 R35.0
M101
G1 X15.68 Y-0.47 Z2.61 F2400.0
M108 R1.179
G1 X17.27 Y-0.47 Z2.61 F1800.0
G1 X17.25 Y7.91 Z2.61 F1800.0
G1 X17.13 Y8.84 Z2.61 F1800.0
G1 X16.9 Y9.31 Z2.61 F1800.0
G1 X9.06 Y16.75 Z2.61 F1800.0
G1 X7.28 Y16.77 Z2.61 F1800.0
G1 X8.38 Y15.73 Z2.61 F1800.0
G1 X8.71 Y14.89 Z2.61 F1800.0
G1 X14.73 Y9.31 Z2.61 F1800.0
G1 X15.46 Y8.38 Z2.61 F1800.0
G1 X15.54 Y7.91 Z2.61 F1800.0
G1 X16.07 Y7.52 Z2.61 F1800.0
G1 X16.14 Y6.98 Z2.61 F1800.0
G1 X15.68 Y6.52 Z2.61 F1800.0
G1 X16.14 Y6.05 Z2.61 F1800.0
G1 X16.14 Y5.58 Z2.61 F1800.0
G1 X15.68 Y5.12 Z2.61 F1800.0
G1 X16.14 Y4.66 Z2.61 F1800.0
G1 X16.14 Y4.19 Z2.61 F1800.0
G1 X15.68 Y3.72 Z2.61 F1800.0
G1 X16.14 Y3.26 Z2.61 F1800.0
G1 X16.14 Y3.07 Z2.61 F1800.0
M108 R35.0
M102
G1 X16.14 Y2.79 Z2.61 F1800.0
G1 X15.68 Y2.33 Z2.61 F1800.0
G1 X16.15 Y1.86 Z2.61 F1800.0
G1 X15.68 Y1.4 Z2.61 F1800.0
M108 R1.179
M103
G1 X14.87 Y8.12 Z2.61 F2400.0
G1 X14.39 Y8.8 Z2.61 F2400.0
G1 X8.3 Y14.44 Z2.61 F2400.0
M108 R35.0
M101
G1 X8.07 Y14.66 Z2.61 F2400.0
G1 X5.52 Y15.82 Z2.61 F2400.0
M108 R1.179
G1 X4.17 Y17.69 Z2.61 F1800.0
G1 X0.85 Y16.29 Z2.61 F1800.0
G1 X-1.49 Y17.69 Z2.61 F1800.0
G1 X-2.13 Y15.82 Z2.61 F1800.0
G1 X-3.82 Y17.02 Z2.61 F1800.0
G1 X-5.12 Y15.36 Z2.61 F1800.0
G1 X-7.41 Y16.75 Z2.61 F1800.0
G1 X-7.63 Y15.36 Z2.61 F1800.0
G1 X-8.25 Y15.87 Z2.61 F1800.0
G1 X-8.73 Y14.43 Z2.61 F1800.0
G1 X-9.47 Y15.82 Z2.61 F1800.0
G1 X-10.31 Y14.94 Z2.61 F1800.0
G1 X-11.53 Y14.89 Z2.61 F1800.0
G1 X-10.95 Y13.5 Z2.61 F1800.0
M103
(</surroundingLoop>)
(</layer>)
(<layer> 2.91 )
(<surroundingLoop>)
(<boundaryPerimeter>)
(<boundaryPoint> X18.288 Y7.856 Z2.91 </boundaryPoint>)
(<boundaryPoint> X18.035 Y9.445 Z2.91 </boundaryPoint>)
(<boundaryPoint> X17.339 Y10.41 Z2.91 </boundaryPoint>)
(<boundaryPoint> X9.676 Y17.612 Z2.91 </boundaryPoint>)
(<boundaryPoint> X8.958 Y18.047 Z2.91 </boundaryPoint>)
(<boundaryPoint> X1.955 Y19.054 Z2.91 </boundaryPoint>)
(<boundaryPoint> X0.77 Y19.107 Z2.91 </boundaryPoint>)
(<boundaryPoint> X-6.338 Y17.904 Z2.91 </boundaryPoint>)
(<boundaryPoint> X-7.484 Y17.902 Z2.91 </boundaryPoint>)
(<boundaryPoint> X-13.607 Y15.152 Z2.91 </boundaryPoint>)
(<boundaryPoint> X-14.023 Y14.102 Z2.91 </boundaryPoint>)
(<boundaryPoint> X-19.325 Y7.256 Z2.91 </boundaryPoint>)
(<boundaryPoint> X-19.454 Y5.944 Z2.91 </boundaryPoint>)
(<boundaryPoint> X-17.586 Y0.647 Z2.91 </boundaryPoint>)
(<boundaryPoint> X-19.896 Y-5.27 Z2.91 </boundaryPoint>)
(<boundaryPoint> X-19.752 Y-6.472 Z2.91 </boundaryPoint>)
(<boundaryPoint> X-14.971 Y-13.49 Z2.91 </boundaryPoint>)
(<boundaryPoint> X-14.519 Y-14.497 Z2.91 </boundaryPoint>)
(<boundaryPoint> X-9.155 Y-16.452 Z2.91 </boundaryPoint>)
(<boundaryPoint> X-7.941 Y-16.975 Z2.91 </boundaryPoint>)
(<boundaryPoint> X1.009 Y-18.104 Z2.91 </boundaryPoint>)
(<boundaryPoint> X2.046 Y-17.739 Z2.91 </boundaryPoint>)
(<boundaryPoint> X9.509 Y-16.708 Z2.91 </boundaryPoint>)
(<boundaryPoint> X10.545 Y-15.954 Z2.91 </boundaryPoint>)
(<boundaryPoint> X17.683 Y-8.522 Z2.91 </boundaryPoint>)
(<boundaryPoint> X18.066 Y-7.996 Z2.91 </boundaryPoint>)
(<boundaryPoint> X18.313 Y-6.8 Z2.91 </boundaryPoint>)
(<loop> inner )
G1 X-10.91 Y13.4 Z2.91 F2400.0
M101
G1 X-6.7 Y15.17 Z2.91 F1800.0
G1 X-5.59 Y15.13 Z2.91 F1800.0
G1 X0.84 Y16.13 Z2.91 F1800.0
G1 X1.92 Y16.09 Z2.91 F1800.0
G1 X7.7 Y15.42 Z2.91 F1800.0
G1 X8.42 Y14.98 Z2.91 F1800.0
G1 X14.59 Y9.25 Z2.91 F1800.0
G1 X15.28 Y8.32 Z2.91 F1800.0
G1 X15.52 Y6.73 Z2.91 F1800.0
G1 X15.53 Y-5.64 Z2.91 F1800.0
G1 X15.29 Y-6.86 Z2.91 F1800.0
G1 X9.16 Y-13.22 Z2.91 F1800.0
G1 X8.15 Y-13.96 Z2.91 F1800.0
G1 X1.86 Y-14.76 Z2.91 F1800.0
G1 X0.93 Y-15.15 Z2.91 F1800.0
G1 X-7.17 Y-14.15 Z2.91 F1800.0
G1 X-12.61 Y-12.24 Z2.91 F1800.0
G1 X-13.14 Y-11.15 Z2.91 F1800.0
G1 X-16.73 Y-6.12 Z2.91 F1800.0
G1 X-16.93 Y-4.65 Z2.91 F1800.0
G1 X-14.75 Y0.61 Z2.91 F1800.0
G1 X-16.56 Y5.3 Z2.91 F1800.0
G1 X-16.37 Y6.88 Z2.91 F1800.0
G1 X-12.34 Y11.86 Z2.91 F1800.0
M108 R35.0
M102
G1 X-12.21 Y12.01 Z2.91 F1800.0
G1 X-11.74 Y13.05 Z2.91 F1800.0
G1 X-10.91 Y13.4 Z2.91 F1800.0
M108 R1.179
M103
(</loop>)
(<loop> outer )
M108 R35.0
M101
G1 X-11.76 Y15.29 Z2.91 F1594.811
M108 R1.179
G1 X-13.12 Y14.68 Z2.91 F1800.0
G1 X-13.47 Y13.79 Z2.91 F1800.0
G1 X-18.72 Y7.01 Z2.91 F1800.0
G1 X-18.82 Y6.02 Z2.91 F1800.0
G1 X-16.92 Y0.64 Z2.91 F1800.0
G1 X-19.25 Y-5.35 Z2.91 F1800.0
G1 X-19.15 Y-6.25 Z2.91 F1800.0
G1 X-14.42 Y-13.18 Z2.91 F1800.0
G1 X-14.05 Y-14.0 Z2.91 F1800.0
G1 X-7.77 Y-16.36 Z2.91 F1800.0
G1 X0.94 Y-17.46 Z2.91 F1800.0
G1 X1.9 Y-17.13 Z2.91 F1800.0
G1 X9.27 Y-16.11 Z2.91 F1800.0
G1 X10.13 Y-15.48 Z2.91 F1800.0
G1 X17.2 Y-8.12 Z2.91 F1800.0
G1 X17.48 Y-7.74 Z2.91 F1800.0
G1 X17.68 Y-6.74 Z2.91 F1800.0
G1 X17.66 Y7.81 Z2.91 F1800.0
G1 X17.44 Y9.2 Z2.91 F1800.0
G1 X16.86 Y9.99 Z2.91 F1800.0
G1 X9.29 Y17.11 Z2.91 F1800.0
G1 X8.74 Y17.44 Z2.91 F1800.0
G1 X1.9 Y18.43 Z2.91 F1800.0
G1 X0.81 Y18.48 Z2.91 F1800.0
G1 X-6.29 Y17.28 Z2.91 F1800.0
G1 X-7.35 Y17.27 Z2.91 F1800.0
G1 X-11.76 Y15.29 Z2.91 F1800.0
M103
(</loop>)
(<perimeter> outer )
G1 X-11.93 Y15.68 Z2.91 F2400.0
M101
G1 X-13.44 Y15.0 Z2.91 F1800.0
G1 X-13.84 Y14.0 Z2.91 F1800.0
G1 X-19.12 Y7.17 Z2.91 F1800.0
G1 X-19.24 Y5.97 Z2.91 F1800.0
G1 X-17.36 Y0.64 Z2.91 F1800.0
G1 X-19.68 Y-5.3 Z2.91 F1800.0
G1 X-19.55 Y-6.4 Z2.91 F1800.0
G1 X-14.79 Y-13.39 Z2.91 F1800.0
G1 X-14.36 Y-14.33 Z2.91 F1800.0
G1 X-9.08 Y-16.26 Z2.91 F1800.0
G1 X-7.88 Y-16.77 Z2.91 F1800.0
G1 X0.99 Y-17.89 Z2.91 F1800.0
G1 X2.0 Y-17.53 Z2.91 F1800.0
G1 X9.43 Y-16.51 Z2.91 F1800.0
G1 X10.41 Y-15.8 Z2.91 F1800.0
G1 X17.52 Y-8.39 Z2.91 F1800.0
G1 X17.87 Y-7.91 Z2.91 F1800.0
G1 X18.1 Y-6.78 Z2.91 F1800.0
G1 X18.08 Y7.84 Z2.91 F1800.0
G1 X17.84 Y9.36 Z2.91 F1800.0
G1 X17.18 Y10.27 Z2.91 F1800.0
G1 X9.55 Y17.44 Z2.91 F1800.0
G1 X8.89 Y17.85 Z2.91 F1800.0
G1 X1.94 Y18.84 Z2.91 F1800.0
G1 X0.78 Y18.9 Z2.91 F1800.0
G1 X-6.32 Y17.7 Z2.91 F1800.0
G1 X-7.44 Y17.69 Z2.91 F1800.0
G1 X-9.88 Y16.6 Z2.91 F1800.0
M108 R35.0
M102
G1 X-11.93 Y15.68 Z2.91 F1800.0
M108 R1.179
M103
(</perimeter>)
(</boundaryPerimeter>)
(<surroundingLoop>)
(<boundaryPerimeter>)
(<boundaryPoint> X1.873 Y15.468 Z2.91 </boundaryPoint>)
(<boundaryPoint> X7.49 Y14.815 Z2.91 </boundaryPoint>)
(<boundaryPoint> X8.034 Y14.475 Z2.91 </boundaryPoint>)
(<boundaryPoint> X14.118 Y8.831 Z2.91 </boundaryPoint>)
(<boundaryPoint> X14.68 Y8.069 Z2.91 </boundaryPoint>)
(<boundaryPoint> X14.893 Y6.686 Z2.91 </boundaryPoint>)
(<boundaryPoint> X14.901 Y-5.574 Z2.91 </boundaryPoint>)
(<boundaryPoint> X14.7 Y-6.582 Z2.91 </boundaryPoint>)
(<boundaryPoint> X14.41 Y-6.944 Z2.91 </boundaryPoint>)
(<boundaryPoint> X8.743 Y-12.74 Z2.91 </boundaryPoint>)
(<boundaryPoint> X7.908 Y-13.352 Z2.91 </boundaryPoint>)
(<boundaryPoint> X1.692 Y-14.143 Z2.91 </boundaryPoint>)
(<boundaryPoint> X0.836 Y-14.503 Z2.91 </boundaryPoint>)
(<boundaryPoint> X-7.01 Y-13.535 Z2.91 </boundaryPoint>)
(<boundaryPoint> X-8.016 Y-13.121 Z2.91 </boundaryPoint>)
(<boundaryPoint> X-12.157 Y-11.729 Z2.91 </boundaryPoint>)
(<boundaryPoint> X-12.595 Y-10.828 Z2.91 </boundaryPoint>)
(<boundaryPoint> X-16.133 Y-5.876 Z2.91 </boundaryPoint>)
(<boundaryPoint> X-16.288 Y-4.738 Z2.91 </boundaryPoint>)
(<boundaryPoint> X-14.069 Y0.603 Z2.91 </boundaryPoint>)
(<boundaryPoint> X-15.92 Y5.377 Z2.91 </boundaryPoint>)
(<boundaryPoint> X-15.765 Y6.628 Z2.91 </boundaryPoint>)
(<boundaryPoint> X-11.677 Y11.675 Z2.91 </boundaryPoint>)
(<boundaryPoint> X-11.268 Y12.57 Z2.91 </boundaryPoint>)
(<boundaryPoint> X-6.586 Y14.534 Z2.91 </boundaryPoint>)
(<boundaryPoint> X-5.555 Y14.497 Z2.91 </boundaryPoint>)
(<boundaryPoint> X0.88 Y15.5 Z2.91 </boundaryPoint>)
(<perimeter> inner )
M108 R35.0
M101
G1 X-10.8 Y12.99 Z2.91 F2239.651
M108 R1.179
G1 X-6.63 Y14.74 Z2.91 F1800.0
G1 X-5.57 Y14.71 Z2.91 F1800.0
G1 X0.87 Y15.71 Z2.91 F1800.0
G1 X1.89 Y15.68 Z2.91 F1800.0
G1 X7.56 Y15.02 Z2.91 F1800.0
G1 X8.16 Y14.64 Z2.91 F1800.0
G1 X14.28 Y8.97 Z2.91 F1800.0
G1 X14.88 Y8.15 Z2.91 F1800.0
G1 X15.1 Y6.7 Z2.91 F1800.0
G1 X15.11 Y-5.59 Z2.91 F1800.0
G1 X14.89 Y-6.67 Z2.91 F1800.0
G1 X14.57 Y-7.08 Z2.91 F1800.0
G1 X8.88 Y-12.9 Z2.91 F1800.0
G1 X7.99 Y-13.55 Z2.91 F1800.0
G1 X1.75 Y-14.35 Z2.91 F1800.0
G1 X0.87 Y-14.72 Z2.91 F1800.0
G1 X-7.06 Y-13.74 Z2.91 F1800.0
G1 X-8.09 Y-13.32 Z2.91 F1800.0
G1 X-12.31 Y-11.9 Z2.91 F1800.0
G1 X-12.78 Y-10.94 Z2.91 F1800.0
G1 X-16.33 Y-5.96 Z2.91 F1800.0
G1 X-16.5 Y-4.71 Z2.91 F1800.0
G1 X-14.29 Y0.61 Z2.91 F1800.0
G1 X-16.13 Y5.35 Z2.91 F1800.0
G1 X-15.97 Y6.71 Z2.91 F1800.0
G1 X-12.19 Y11.37 Z2.91 F1800.0
M108 R35.0
M102
G1 X-11.86 Y11.79 Z2.91 F1800.0
G1 X-11.43 Y12.73 Z2.91 F1800.0
G1 X-10.8 Y12.99 Z2.91 F1800.0
M108 R1.179
M103
(</perimeter>)
(</boundaryPerimeter>)
(</surroundingLoop>)
G1 X-9.23 Y13.89 Z2.91 F2400.0
M108 R35.0
M101
G1 X-6.52 Y15.43 Z2.91 F2400.0
M108 R1.179
G1 X-5.58 Y15.4 Z2.91 F1800.0
G1 X-4.19 Y15.62 Z2.91 F1800.0
G1 X-3.79 Y16.15 Z2.91 F1800.0
G1 X-3.33 Y16.23 Z2.91 F1800.0
G1 X-2.79 Y15.84 Z2.91 F1800.0
G1 X-2.4 Y16.37 Z2.91 F1800.0
G1 X-2.79 Y17.59 Z2.91 F1800.0
G1 X-3.26 Y17.51 Z2.91 F1800.0
G1 X-3.65 Y16.97 Z2.91 F1800.0
G1 X-4.19 Y17.35 Z2.91 F1800.0
G1 X-5.58 Y17.12 Z2.91 F1800.0
G1 X-6.03 Y16.57 Z2.91 F1800.0
G1 X-6.51 Y16.54 Z2.91 F1800.0
G1 X-6.98 Y17.0 Z2.91 F1800.0
G1 X-8.84 Y16.3 Z2.91 F1800.0
G1 X-7.63 Y15.58 Z2.91 F1800.0
G1 X-7.91 Y14.95 Z2.91 F1800.0
G1 X-8.38 Y14.76 Z2.91 F1800.0
G1 X-9.02 Y14.99 Z2.91 F1800.0
G1 X-9.31 Y14.37 Z2.91 F1800.0
G1 X-10.71 Y15.47 Z2.91 F1800.0
G1 X-10.84 Y15.16 Z2.91 F1800.0
M108 R35.0
M102
G1 X-10.98 Y14.84 Z2.91 F1800.0
G1 X-10.42 Y14.41 Z2.91 F1800.0
G1 X-10.71 Y13.78 Z2.91 F1800.0
G1 X-11.17 Y13.59 Z2.91 F1800.0
M108 R1.179
M103
G1 X-11.47 Y13.23 Z2.91 F2400.0
M108 R35.0
M101
G1 X-13.5 Y10.86 Z2.91 F2400.0
M108 R1.179
G1 X-12.57 Y12.01 Z2.91 F1800.0
G1 X-12.1 Y12.91 Z2.91 F1800.0
G1 X-11.91 Y14.42 Z2.91 F1800.0
G1 X-12.57 Y14.63 Z2.91 F1800.0
G1 X-13.03 Y14.16 Z2.91 F1800.0
G1 X-12.7 Y13.83 Z2.91 F1800.0
G1 X-13.5 Y13.31 Z2.91 F1800.0
G1 X-16.75 Y9.1 Z2.91 F1800.0
G1 X-13.96 Y10.28 Z2.91 F1800.0
G1 X-15.82 Y7.99 Z2.91 F1800.0
G1 X-17.22 Y8.5 Z2.91 F1800.0
G1 X-18.15 Y7.3 Z2.91 F1800.0
G1 X-16.75 Y5.96 Z2.91 F1800.0
G1 X-17.22 Y5.04 Z2.91 F1800.0
G1 X-18.15 Y4.96 Z2.91 F1800.0
G1 X-17.25 Y3.79 Z2.91 F1800.0
G1 X-16.29 Y3.84 Z2.91 F1800.0
G1 X-16.26 Y2.47 Z2.91 F1800.0
G1 X-17.22 Y2.32 Z2.91 F1800.0
G1 X-16.32 Y1.15 Z2.91 F1800.0
G1 X-15.36 Y1.44 Z2.91 F1800.0
G1 X-15.36 Y-0.15 Z2.91 F1800.0
G1 X-16.32 Y0.13 Z2.91 F1800.0
G1 X-17.22 Y-0.89 Z2.91 F1800.0
G1 X-17.25 Y-2.21 Z2.91 F1800.0
M108 R35.0
M102
G1 X-17.25 Y-2.25 Z2.91 F1800.0
G1 X-16.29 Y-2.4 Z2.91 F1800.0
G1 X-16.22 Y-1.93 Z2.91 F1800.0
G1 X-15.82 Y-1.27 Z2.91 F1800.0
M108 R1.179
M103
M108 R35.0
M101
G1 X-16.75 Y-3.52 Z2.91 F1866.687
M108 R1.179
G1 X-17.72 Y-3.45 Z2.91 F1800.0
G1 X-18.62 Y-4.47 Z2.91 F1800.0
G1 X-18.62 Y-6.54 Z2.91 F1800.0
G1 X-17.77 Y-6.96 Z2.91 F1800.0
G1 X-17.69 Y-7.91 Z2.91 F1800.0
G1 X-17.22 Y-8.59 Z2.91 F1800.0
G1 X-16.75 Y-6.55 Z2.91 F1800.0
G1 X-16.29 Y-7.21 Z2.91 F1800.0
G1 X-16.2 Y-8.13 Z2.91 F1800.0
G1 X-15.36 Y-8.51 Z2.91 F1800.0
G1 X-15.27 Y-9.43 Z2.91 F1800.0
G1 X-16.75 Y-9.27 Z2.91 F1800.0
G1 X-15.36 Y-11.32 Z2.91 F1800.0
G1 X-14.43 Y-9.81 Z2.91 F1800.0
G1 X-13.5 Y-11.12 Z2.91 F1800.0
G1 X-13.03 Y-11.99 Z2.91 F1800.0
G1 X-12.92 Y-12.84 Z2.91 F1800.0
G1 X-13.83 Y-13.45 Z2.91 F1800.0
M108 R35.0
M102
G1 X-13.96 Y-13.54 Z2.91 F1800.0
G1 X-13.5 Y-13.92 Z2.91 F1800.0
G1 X-12.1 Y-14.44 Z2.91 F1800.0
M108 R1.179
M103
M108 R35.0
M101
G1 X-11.64 Y-12.87 Z2.91 F1261.025
M108 R1.179
G1 X-10.24 Y-13.36 Z2.91 F1800.0
G1 X-11.17 Y-14.79 Z2.91 F1800.0
G1 X-10.71 Y-14.97 Z2.91 F1800.0
G1 X-10.07 Y-14.71 Z2.91 F1800.0
G1 X-9.77 Y-15.32 Z2.91 F1800.0
G1 X-9.31 Y-15.49 Z2.91 F1800.0
G1 X-9.31 Y-13.69 Z2.91 F1800.0
G1 X-8.38 Y-14.01 Z2.91 F1800.0
G1 X-8.07 Y-14.62 Z2.91 F1800.0
G1 X-8.68 Y-15.23 Z2.91 F1800.0
G1 X-8.38 Y-15.84 Z2.91 F1800.0
G1 X-7.91 Y-16.02 Z2.91 F1800.0
G1 X-6.98 Y-16.19 Z2.91 F1800.0
G1 X-6.46 Y-15.79 Z2.91 F1800.0
G1 X-7.45 Y-14.34 Z2.91 F1800.0
G1 X-6.52 Y-14.5 Z2.91 F1800.0
G1 X-6.11 Y-15.02 Z2.91 F1800.0
G1 X-5.64 Y-15.08 Z2.91 F1800.0
G1 X-5.12 Y-14.68 Z2.91 F1800.0
G1 X-4.71 Y-15.2 Z2.91 F1800.0
G1 X-5.99 Y-15.84 Z2.91 F1800.0
G1 X-5.58 Y-16.36 Z2.91 F1800.0
G1 X-5.12 Y-16.42 Z2.91 F1800.0
G1 X-4.6 Y-16.02 Z2.91 F1800.0
G1 X-4.19 Y-16.54 Z2.91 F1800.0
G1 X-3.67 Y-16.14 Z2.91 F1800.0
G1 X-3.2 Y-16.2 Z2.91 F1800.0
G1 X-2.79 Y-16.72 Z2.91 F1800.0
G1 X-2.27 Y-16.31 Z2.91 F1800.0
G1 X-4.19 Y-14.79 Z2.91 F1800.0
G1 X-3.26 Y-14.9 Z2.91 F1800.0
M103
G1 X-2.33 Y-15.02 Z2.91 F2400.0
M101
G1 X-1.4 Y-15.13 Z2.91 F1800.0
G1 X-0.99 Y-15.65 Z2.91 F1800.0
G1 X-0.52 Y-15.71 Z2.91 F1800.0
G1 X-0.0 Y-15.31 Z2.91 F1800.0
G1 X0.93 Y-15.42 Z2.91 F1800.0
G1 X1.86 Y-15.05 Z2.91 F1800.0
G1 X2.79 Y-14.91 Z2.91 F1800.0
G1 X3.32 Y-15.31 Z2.91 F1800.0
G1 X3.72 Y-14.79 Z2.91 F1800.0
G1 X4.09 Y-15.08 Z2.91 F1800.0
G1 X4.19 Y-14.73 Z2.91 F1800.0
G1 X4.65 Y-14.67 Z2.91 F1800.0
G1 X5.18 Y-15.08 Z2.91 F1800.0
G1 X5.64 Y-15.02 Z2.91 F1800.0
G1 X6.05 Y-14.5 Z2.91 F1800.0
G1 X6.98 Y-14.38 Z2.91 F1800.0
G1 X6.92 Y-15.69 Z2.91 F1800.0
G1 X6.52 Y-16.21 Z2.91 F1800.0
G1 X5.99 Y-15.81 Z2.91 F1800.0
G1 X5.52 Y-15.88 Z2.91 F1800.0
G1 X5.12 Y-16.41 Z2.91 F1800.0
G1 X4.19 Y-16.53 Z2.91 F1800.0
G1 X3.66 Y-16.14 Z2.91 F1800.0
G1 X3.19 Y-16.2 Z2.91 F1800.0
G1 X2.79 Y-16.73 Z2.91 F1800.0
G1 X2.33 Y-16.79 Z2.91 F1800.0
G1 X1.71 Y-16.41 Z2.91 F1800.0
G1 X1.4 Y-17.01 Z2.91 F1800.0
G1 X0.93 Y-17.18 Z2.91 F1800.0
G1 X0.47 Y-17.13 Z2.91 F1800.0
G1 X0.17 Y-16.75 Z2.91 F1800.0
M108 R35.0
M102
G1 X0.06 Y-16.61 Z2.91 F1800.0
G1 X-0.41 Y-16.55 Z2.91 F1800.0
G1 X-0.93 Y-16.95 Z2.91 F1800.0
G1 X-1.86 Y-16.83 Z2.91 F1800.0
M108 R1.179
M103
G1 X4.8 Y-16.28 Z2.91 F2400.0
M108 R35.0
M101
G1 X7.91 Y-16.02 Z2.91 F2400.0
M108 R1.179
G1 X8.84 Y-15.89 Z2.91 F1800.0
G1 X9.31 Y-15.74 Z2.91 F1800.0
G1 X9.77 Y-15.4 Z2.91 F1800.0
G1 X10.24 Y-14.97 Z2.91 F1800.0
G1 X7.5 Y-14.78 Z2.91 F1800.0
G1 X7.91 Y-14.26 Z2.91 F1800.0
G1 X8.38 Y-14.13 Z2.91 F1800.0
G1 X9.31 Y-13.44 Z2.91 F1800.0
G1 X15.36 Y-7.17 Z2.91 F1800.0
G1 X16.75 Y-8.19 Z2.91 F1800.0
G1 X12.26 Y-12.86 Z2.91 F1800.0
M108 R35.0
M102
G1 X10.71 Y-14.49 Z2.91 F1800.0
M108 R1.179
M103
G1 X15.07 Y-9.89 Z2.91 F2400.0
M108 R35.0
M101
G1 X17.22 Y-7.63 Z2.91 F2400.0
M108 R1.179
G1 X17.22 Y7.55 Z2.91 F1800.0
M108 R35.0
M102
G1 X17.22 Y8.83 Z2.91 F1800.0
G1 X16.75 Y9.68 Z2.91 F1800.0
M108 R1.179
M103
M108 R35.0
M101
G1 X15.36 Y8.67 Z2.91 F1327.232
M108 R1.179
G1 X14.89 Y9.3 Z2.91 F1800.0
G1 X13.03 Y11.07 Z2.91 F1800.0
G1 X15.82 Y10.6 Z2.91 F1800.0
G1 X11.64 Y14.53 Z2.91 F1800.0
G1 X12.57 Y11.5 Z2.91 F1800.0
G1 X8.84 Y14.95 Z2.91 F1800.0
G1 X8.62 Y15.72 Z2.91 F1800.0
G1 X7.91 Y15.61 Z2.91 F1800.0
G1 X7.56 Y16.18 Z2.91 F1800.0
G1 X10.71 Y15.41 Z2.91 F1800.0
G1 X9.48 Y16.56 Z2.91 F1800.0
M108 R35.0
M102
G1 X9.31 Y16.72 Z2.91 F1800.0
G1 X8.84 Y17.06 Z2.91 F1800.0
G1 X8.38 Y17.22 Z2.91 F1800.0
G1 X7.45 Y17.35 Z2.91 F1800.0
M108 R1.179
M103
G1 X3.09 Y16.72 Z2.91 F2400.0
M108 R35.0
M101
G1 X0.0 Y16.27 Z2.91 F2400.0
M108 R1.179
G1 X0.93 Y16.4 Z2.91 F1800.0
G1 X1.86 Y16.37 Z2.91 F1800.0
G1 X2.37 Y16.79 Z2.91 F1800.0
G1 X2.79 Y16.27 Z2.91 F1800.0
G1 X3.72 Y16.16 Z2.91 F1800.0
G1 X4.24 Y16.57 Z2.91 F1800.0
G1 X4.65 Y16.05 Z2.91 F1800.0
G1 X5.58 Y15.94 Z2.91 F1800.0
G1 X6.1 Y16.35 Z2.91 F1800.0
G1 X6.45 Y17.03 Z2.91 F1800.0
G1 X6.05 Y17.55 Z2.91 F1800.0
G1 X5.12 Y17.69 Z2.91 F1800.0
G1 X4.59 Y17.3 Z2.91 F1800.0
G1 X4.12 Y17.36 Z2.91 F1800.0
G1 X3.72 Y17.89 Z2.91 F1800.0
G1 X3.19 Y17.5 Z2.91 F1800.0
G1 X2.73 Y17.56 Z2.91 F1800.0
G1 X2.33 Y18.09 Z2.91 F1800.0
G1 X1.4 Y18.18 Z2.91 F1800.0
G1 X1.0 Y17.74 Z2.91 F1800.0
G1 X0.47 Y18.14 Z2.91 F1800.0
G1 X0.08 Y17.6 Z2.91 F1800.0
G1 X-0.47 Y17.98 Z2.91 F1800.0
G1 X-2.33 Y17.67 Z2.91 F1800.0
G1 X-1.93 Y16.44 Z2.91 F1800.0
G1 X-1.4 Y16.06 Z2.91 F1800.0
M103
(</surroundingLoop>)
(</layer>)
(<layer> 3.21 )
(<surroundingLoop>)
(<boundaryPerimeter>)
(<boundaryPoint> X18.421 Y7.564 Z3.21 </boundaryPoint>)
(<boundaryPoint> X18.112 Y9.507 Z3.21 </boundaryPoint>)
(<boundaryPoint> X17.262 Y10.686 Z3.21 </boundaryPoint>)
(<boundaryPoint> X9.848 Y17.653 Z3.21 </boundaryPoint>)
(<boundaryPoint> X8.971 Y18.185 Z3.21 </boundaryPoint>)
(<boundaryPoint> X2.18 Y19.161 Z3.21 </boundaryPoint>)
(<boundaryPoint> X0.732 Y19.226 Z3.21 </boundaryPoint>)
(<boundaryPoint> X-6.161 Y18.059 Z3.21 </boundaryPoint>)
(<boundaryPoint> X-7.563 Y18.057 Z3.21 </boundaryPoint>)
(<boundaryPoint> X-9.068 Y17.455 Z3.21 </boundaryPoint>)
(<boundaryPoint> X-13.739 Y15.298 Z3.21 </boundaryPoint>)
(<boundaryPoint> X-14.247 Y14.016 Z3.21 </boundaryPoint>)
(<boundaryPoint> X-19.366 Y7.407 Z3.21 </boundaryPoint>)
(<boundaryPoint> X-19.524 Y5.804 Z3.21 </boundaryPoint>)
(<boundaryPoint> X-17.703 Y0.643 Z3.21 </boundaryPoint>)
(<boundaryPoint> X-19.954 Y-5.122 Z3.21 </boundaryPoint>)
(<boundaryPoint> X-19.777 Y-6.59 Z3.21 </boundaryPoint>)
(<boundaryPoint> X-15.163 Y-13.365 Z3.21 </boundaryPoint>)
(<boundaryPoint> X-14.61 Y-14.596 Z3.21 </boundaryPoint>)
(<boundaryPoint> X-9.487 Y-16.463 Z3.21 </boundaryPoint>)
(<boundaryPoint> X-8.003 Y-17.103 Z3.21 </boundaryPoint>)
(<boundaryPoint> X1.009 Y-18.246 Z3.21 </boundaryPoint>)
(<boundaryPoint> X2.276 Y-17.8 Z3.21 </boundaryPoint>)
(<boundaryPoint> X9.503 Y-16.802 Z3.21 </boundaryPoint>)
(<boundaryPoint> X10.769 Y-15.881 Z3.21 </boundaryPoint>)
(<boundaryPoint> X17.675 Y-8.69 Z3.21 </boundaryPoint>)
(<boundaryPoint> X18.144 Y-8.047 Z3.21 </boundaryPoint>)
(<boundaryPoint> X18.445 Y-6.585 Z3.21 </boundaryPoint>)
(<loop> inner )
G1 X-1.37 Y15.9 Z3.21 F2400.0
M101
G1 X0.81 Y16.24 Z3.21 F1800.0
G1 X2.11 Y16.2 Z3.21 F1800.0
G1 X7.72 Y15.55 Z3.21 F1800.0
G1 X8.56 Y15.02 Z3.21 F1800.0
G1 X14.54 Y9.48 Z3.21 F1800.0
G1 X15.35 Y8.38 Z3.21 F1800.0
G1 X15.64 Y6.49 Z3.21 F1800.0
G1 X15.65 Y-5.46 Z3.21 F1800.0
G1 X15.36 Y-6.9 Z3.21 F1800.0
G1 X9.34 Y-13.16 Z3.21 F1800.0
G1 X8.15 Y-14.04 Z3.21 F1800.0
G1 X2.04 Y-14.81 Z3.21 F1800.0
G1 X0.92 Y-15.29 Z3.21 F1800.0
G1 X-7.22 Y-14.28 Z3.21 F1800.0
G1 X-12.69 Y-12.34 Z3.21 F1800.0
G1 X-13.31 Y-11.05 Z3.21 F1800.0
G1 X-16.77 Y-6.21 Z3.21 F1800.0
G1 X-17.01 Y-4.5 Z3.21 F1800.0
G1 X-14.88 Y0.61 Z3.21 F1800.0
G1 X-16.65 Y5.15 Z3.21 F1800.0
G1 X-16.41 Y7.01 Z3.21 F1800.0
G1 X-12.42 Y11.95 Z3.21 F1800.0
G1 X-11.85 Y13.19 Z3.21 F1800.0
G1 X-6.77 Y15.32 Z3.21 F1800.0
G1 X-5.43 Y15.27 Z3.21 F1800.0
G1 X-3.6 Y15.55 Z3.21 F1800.0
M108 R35.0
M102
G1 X-1.37 Y15.9 Z3.21 F1800.0
M108 R1.179
M103
(</loop>)
(<loop> outer )
M108 R35.0
M101
G1 X-1.76 Y18.17 Z3.21 F1767.17
M108 R1.179
G1 X-6.11 Y17.43 Z3.21 F1800.0
G1 X-7.44 Y17.43 Z3.21 F1800.0
G1 X-13.25 Y14.83 Z3.21 F1800.0
G1 X-13.7 Y13.7 Z3.21 F1800.0
G1 X-18.76 Y7.17 Z3.21 F1800.0
G1 X-18.89 Y5.88 Z3.21 F1800.0
G1 X-17.03 Y0.63 Z3.21 F1800.0
G1 X-19.31 Y-5.2 Z3.21 F1800.0
G1 X-19.17 Y-6.36 Z3.21 F1800.0
G1 X-14.61 Y-13.06 Z3.21 F1800.0
G1 X-14.14 Y-14.1 Z3.21 F1800.0
G1 X-7.84 Y-16.49 Z3.21 F1800.0
G1 X0.94 Y-17.6 Z3.21 F1800.0
G1 X2.13 Y-17.19 Z3.21 F1800.0
G1 X9.26 Y-16.2 Z3.21 F1800.0
G1 X10.35 Y-15.41 Z3.21 F1800.0
G1 X17.19 Y-8.29 Z3.21 F1800.0
G1 X17.56 Y-7.79 Z3.21 F1800.0
G1 X17.82 Y-6.52 Z3.21 F1800.0
G1 X17.79 Y7.51 Z3.21 F1800.0
G1 X17.52 Y9.26 Z3.21 F1800.0
G1 X16.79 Y10.27 Z3.21 F1800.0
G1 X9.47 Y17.15 Z3.21 F1800.0
G1 X8.76 Y17.58 Z3.21 F1800.0
G1 X2.12 Y18.54 Z3.21 F1800.0
G1 X0.77 Y18.59 Z3.21 F1800.0
G1 X-1.76 Y18.17 Z3.21 F1800.0
M103
(</loop>)
(<perimeter> outer )
G1 X-1.83 Y18.58 Z3.21 F2400.0
M101
G1 X-6.14 Y17.85 Z3.21 F1800.0
G1 X-7.52 Y17.85 Z3.21 F1800.0
G1 X-8.98 Y17.26 Z3.21 F1800.0
G1 X-13.57 Y15.14 Z3.21 F1800.0
G1 X-14.06 Y13.91 Z3.21 F1800.0
G1 X-19.16 Y7.33 Z3.21 F1800.0
G1 X-19.31 Y5.83 Z3.21 F1800.0
G1 X-17.48 Y0.64 Z3.21 F1800.0
G1 X-19.74 Y-5.15 Z3.21 F1800.0
G1 X-19.57 Y-6.51 Z3.21 F1800.0
G1 X-14.98 Y-13.26 Z3.21 F1800.0
G1 X-14.46 Y-14.43 Z3.21 F1800.0
G1 X-9.41 Y-16.27 Z3.21 F1800.0
G1 X-7.95 Y-16.9 Z3.21 F1800.0
G1 X0.99 Y-18.03 Z3.21 F1800.0
G1 X2.23 Y-17.59 Z3.21 F1800.0
G1 X9.42 Y-16.6 Z3.21 F1800.0
G1 X10.63 Y-15.72 Z3.21 F1800.0
G1 X17.51 Y-8.55 Z3.21 F1800.0
G1 X17.95 Y-7.96 Z3.21 F1800.0
G1 X18.23 Y-6.56 Z3.21 F1800.0
G1 X18.21 Y7.55 Z3.21 F1800.0
G1 X17.91 Y9.43 Z3.21 F1800.0
G1 X17.1 Y10.55 Z3.21 F1800.0
G1 X9.72 Y17.48 Z3.21 F1800.0
G1 X8.9 Y17.98 Z3.21 F1800.0
G1 X2.16 Y18.95 Z3.21 F1800.0
G1 X0.74 Y19.02 Z3.21 F1800.0
G1 X0.39 Y18.96 Z3.21 F1800.0
M108 R35.0
M102
G1 X-1.83 Y18.58 Z3.21 F1800.0
M108 R1.179
M103
(</perimeter>)
(</boundaryPerimeter>)
(<surroundingLoop>)
(<boundaryPerimeter>)
(<boundaryPoint> X2.062 Y15.573 Z3.21 </boundaryPoint>)
(<boundaryPoint> X7.509 Y14.94 Z3.21 </boundaryPoint>)
(<boundaryPoint> X8.174 Y14.523 Z3.21 </boundaryPoint>)
(<boundaryPoint> X14.064 Y9.06 Z3.21 </boundaryPoint>)
(<boundaryPoint> X14.749 Y8.129 Z3.21 </boundaryPoint>)
(<boundaryPoint> X15.01 Y6.439 Z3.21 </boundaryPoint>)
(<boundaryPoint> X15.018 Y-5.398 Z3.21 </boundaryPoint>)
(<boundaryPoint> X14.771 Y-6.63 Z3.21 </boundaryPoint>)
(<boundaryPoint> X14.418 Y-7.073 Z3.21 </boundaryPoint>)
(<boundaryPoint> X8.929 Y-12.687 Z3.21 </boundaryPoint>)
(<boundaryPoint> X7.908 Y-13.435 Z3.21 </boundaryPoint>)
(<boundaryPoint> X1.879 Y-14.202 Z3.21 </boundaryPoint>)
(<boundaryPoint> X0.833 Y-14.642 Z3.21 </boundaryPoint>)
(<boundaryPoint> X-7.055 Y-13.665 Z3.21 </boundaryPoint>)
(<boundaryPoint> X-8.286 Y-13.159 Z3.21 </boundaryPoint>)
(<boundaryPoint> X-12.235 Y-11.832 Z3.21 </boundaryPoint>)
(<boundaryPoint> X-12.77 Y-10.73 Z3.21 </boundaryPoint>)
(<boundaryPoint> X-16.171 Y-5.971 Z3.21 </boundaryPoint>)
(<boundaryPoint> X-16.36 Y-4.581 Z3.21 </boundaryPoint>)
(<boundaryPoint> X-14.207 Y0.599 Z3.21 </boundaryPoint>)
(<boundaryPoint> X-16.004 Y5.23 Z3.21 </boundaryPoint>)
(<boundaryPoint> X-15.813 Y6.759 Z3.21 </boundaryPoint>)
(<boundaryPoint> X-11.881 Y11.614 Z3.21 </boundaryPoint>)
(<boundaryPoint> X-11.381 Y12.708 Z3.21 </boundaryPoint>)
(<boundaryPoint> X-6.653 Y14.685 Z3.21 </boundaryPoint>)
(<boundaryPoint> X-5.393 Y14.639 Z3.21 </boundaryPoint>)
(<boundaryPoint> X0.848 Y15.612 Z3.21 </boundaryPoint>)
(<perimeter> inner )
G1 X-1.82 Y18.57 Z3.21 F2400.0
M108 R35.0
M101
G1 X-1.34 Y15.48 Z3.21 F2400.0
M108 R1.179
G1 X0.83 Y15.82 Z3.21 F1800.0
G1 X2.08 Y15.78 Z3.21 F1800.0
G1 X7.58 Y15.14 Z3.21 F1800.0
G1 X8.3 Y14.69 Z3.21 F1800.0
G1 X14.22 Y9.2 Z3.21 F1800.0
G1 X14.95 Y8.21 Z3.21 F1800.0
G1 X15.22 Y6.46 Z3.21 F1800.0
G1 X15.23 Y-5.42 Z3.21 F1800.0
G1 X14.97 Y-6.72 Z3.21 F1800.0
G1 X14.57 Y-7.21 Z3.21 F1800.0
G1 X9.07 Y-12.85 Z3.21 F1800.0
G1 X7.99 Y-13.64 Z3.21 F1800.0
G1 X1.93 Y-14.41 Z3.21 F1800.0
G1 X0.86 Y-14.86 Z3.21 F1800.0
G1 X-7.11 Y-13.87 Z3.21 F1800.0
G1 X-8.36 Y-13.36 Z3.21 F1800.0
G1 X-12.38 Y-12.0 Z3.21 F1800.0
G1 X-12.95 Y-10.84 Z3.21 F1800.0
G1 X-16.37 Y-6.05 Z3.21 F1800.0
G1 X-16.57 Y-4.55 Z3.21 F1800.0
G1 X-14.43 Y0.6 Z3.21 F1800.0
G1 X-16.22 Y5.2 Z3.21 F1800.0
G1 X-16.01 Y6.84 Z3.21 F1800.0
G1 X-12.06 Y11.72 Z3.21 F1800.0
G1 X-11.54 Y12.87 Z3.21 F1800.0
G1 X-6.69 Y14.9 Z3.21 F1800.0
G1 X-5.41 Y14.85 Z3.21 F1800.0
G1 X-3.57 Y15.14 Z3.21 F1800.0
M108 R35.0
M102
G1 X-1.34 Y15.48 Z3.21 F1800.0
M108 R1.179
M103
(</perimeter>)
(</boundaryPerimeter>)
(</surroundingLoop>)
G1 X0.62 Y15.8 Z3.21 F2400.0
M108 R35.0
M101
G1 X3.7 Y16.29 Z3.21 F2400.0
M108 R1.179
G1 X2.87 Y18.15 Z3.21 F1800.0
G1 X-0.22 Y18.15 Z3.21 F1800.0
G1 X-0.65 Y16.29 Z3.21 F1800.0
G1 X-2.83 Y17.24 Z3.21 F1800.0
G1 X-5.37 Y16.91 Z3.21 F1800.0
G1 X-7.38 Y15.36 Z3.21 F1800.0
G1 X-8.09 Y16.33 Z3.21 F1800.0
G1 X-9.32 Y16.29 Z3.21 F1800.0
G1 X-9.6 Y14.43 Z3.21 F1800.0
G1 X-10.89 Y14.39 Z3.21 F1800.0
G1 X-10.17 Y15.4 Z3.21 F1800.0
G1 X-11.4 Y15.36 Z3.21 F1800.0
G1 X-12.18 Y14.51 Z3.21 F1800.0
G1 X-13.12 Y14.43 Z3.21 F1800.0
G1 X-13.3 Y13.96 Z3.21 F1800.0
G1 X-13.09 Y13.31 Z3.21 F1800.0
G1 X-12.18 Y13.8 Z3.21 F1800.0
G1 X-12.22 Y13.03 Z3.21 F1800.0
G1 X-12.65 Y12.1 Z3.21 F1800.0
G1 X-14.53 Y9.77 Z3.21 F1800.0
G1 X-13.87 Y13.03 Z3.21 F1800.0
G1 X-17.11 Y8.84 Z3.21 F1800.0
G1 X-14.91 Y9.31 Z3.21 F1800.0
G1 X-16.04 Y7.91 Z3.21 F1800.0
G1 X-16.82 Y7.68 Z3.21 F1800.0
G1 X-16.69 Y6.98 Z3.21 F1800.0
G1 X-17.84 Y7.91 Z3.21 F1800.0
G1 X-18.5 Y6.98 Z3.21 F1800.0
G1 X-18.09 Y6.47 Z3.21 F1800.0
G1 X-18.59 Y6.05 Z3.21 F1800.0
G1 X-18.33 Y5.12 Z3.21 F1800.0
G1 X-18.28 Y5.1 Z3.21 F1800.0
M108 R35.0
M102
G1 X-17.21 Y4.59 Z3.21 F1800.0
G1 X-16.93 Y5.12 Z3.21 F1800.0
G1 X-16.87 Y5.58 Z3.21 F1800.0
M108 R1.179
M103
M108 R35.0
M101
G1 X-16.02 Y2.79 Z3.21 F2243.454
M108 R1.179
G1 X-16.2 Y3.26 Z3.21 F1800.0
G1 X-16.82 Y3.56 Z3.21 F1800.0
G1 X-17.23 Y3.41 Z3.21 F1800.0
G1 X-17.51 Y2.79 Z3.21 F1800.0
G1 X-16.9 Y2.48 Z3.21 F1800.0
G1 X-17.18 Y1.86 Z3.21 F1800.0
G1 X-17.01 Y1.4 Z3.21 F1800.0
G1 X-16.41 Y1.09 Z3.21 F1800.0
G1 X-16.1 Y1.69 Z3.21 F1800.0
G1 X-15.48 Y1.4 Z3.21 F1800.0
G1 X-15.3 Y0.93 Z3.21 F1800.0
G1 X-15.24 Y0.47 Z3.21 F1800.0
G1 X-15.86 Y0.18 Z3.21 F1800.0
G1 X-15.63 Y-0.47 Z3.21 F1800.0
G1 X-15.82 Y-0.93 Z3.21 F1800.0
G1 X-16.99 Y0.0 Z3.21 F1800.0
G1 X-17.35 Y-0.93 Z3.21 F1800.0
G1 X-17.1 Y-1.57 Z3.21 F1800.0
G1 X-16.01 Y-1.4 Z3.21 F1800.0
G1 X-16.4 Y-2.33 Z3.21 F1800.0
G1 X-17.02 Y-2.61 Z3.21 F1800.0
G1 X-16.79 Y-3.26 Z3.21 F1800.0
G1 X-18.08 Y-2.79 Z3.21 F1800.0
G1 X-17.41 Y-3.54 Z3.21 F1800.0
G1 X-17.17 Y-4.19 Z3.21 F1800.0
G1 X-17.72 Y-4.57 Z3.21 F1800.0
G1 X-18.44 Y-3.72 Z3.21 F1800.0
G1 X-18.49 Y-4.31 Z3.21 F1800.0
G1 X-18.68 Y-4.77 Z3.21 F1800.0
G1 X-18.53 Y-5.53 Z3.21 F1800.0
